maxxytjr/LSTMPredictiveMaintenance/current_data.csv
,time,base_current,shoulder_current,elbow_current,wrist1_current,wrist2_current,wrist3_current
0,0.0,0.0241179168224,4.96352434158,0.589480638504,0.302194297314,0.0035254969261599997,0.07524453103539999
1,0.008,0.106460846961,5.12184143066,0.556771993637,0.370460033417,-0.0096041392535,0.113607503474
2,0.016,0.24576100707100001,5.11595869064,0.581294476986,0.447406709194,-0.00324822543189,0.145824626088
3,0.024,0.217305213213,5.0521130561800005,0.48212349414800004,0.551908910275,-0.00625241175294,0.14757454395300001
4,0.031,0.26831755042100003,5.30141687393,0.210789203644,0.7020317316060001,-0.00037350167986,0.17892745137200003
5,0.04,0.21793906390700002,5.4351882934599995,0.689010977745,0.7365331053730001,-0.0099042179063,0.184496179223
6,0.048,0.215736806393,5.36221599579,0.472815454006,0.489822745323,0.0157652292401,0.194706425071
7,0.056,0.220803052187,5.23569965363,0.24288965761700002,0.43987965583800004,-0.0186699703336,0.19668465852699998
8,0.064,0.322310000658,5.45721054077,0.6083174347879999,0.636147975922,-0.00838326569647,0.19730737805399998
9,0.07200000000000001,0.391926646233,5.34955120087,0.253793954849,0.698978841305,-0.0123336073011,0.17898572981400002
10,0.08000000000000002,0.53439450264,5.02321624756,0.5923345685010001,0.555377483368,-0.00039735459722600004,0.13279107213
11,0.08800000000000002,0.635701477528,5.163988113399999,0.384209305048,0.420655727386,0.00557428831235,0.12137065082800001
12,0.09600000000000003,0.734530568123,5.02096700668,0.38803309202200004,0.608659029007,-0.0133053185418,0.0665897428989
13,0.10400000000000004,0.7956172227860001,5.09440135956,0.178156718612,0.761107623577,-0.00052496814169,0.022683944553099997
14,0.11200000000000004,0.670125186443,5.085685729980001,0.25231552124,0.493538439274,0.024099195376,0.00498574925587
15,0.12000000000000005,0.663695573807,4.96024513245,0.31986254453699997,0.608323872089,0.0175515078008,0.037673089653300004
16,0.12800000000000006,0.629275560379,5.11336708069,0.0687662288547,0.684480428696,0.0447954759002,0.08311953395610001
17,0.13600000000000007,0.571093559265,5.15631484985,-0.036519277840900005,0.43324303627,0.0421756841242,0.137431547046
18,0.14400000000000007,0.624363422394,5.023811340330001,0.259199023247,0.508249104023,0.0365806333721,0.17150141298799998
19,0.15200000000000008,0.604484558105,5.161366462709999,0.24744932353500002,0.7479097843170001,0.0497163273394,0.22744902968400002
20,0.1600000000000001,0.6761475801469999,5.20335531235,0.21225091815000002,0.521414279938,0.0436965487897,0.258173465729
21,0.1680000000000001,0.6165472269060001,5.30796575546,0.09365960955620001,0.752053380013,0.0970525145531,0.288302719593
22,0.1760000000000001,0.5790107250209999,5.4126548767100005,-0.106123968959,0.561016380787,0.0788649767637,0.279925793409
23,0.1840000000000001,0.560325264931,5.01463127136,0.628921151161,0.47395151853600004,0.0931729823351,0.202372521162
24,0.19200000000000012,0.519263267517,4.60806941986,0.8969318866730001,0.806865096092,0.0796776115894,0.126420736313
25,0.19900000000000012,0.393892139196,4.51812076569,0.7675437331199999,0.544179141521,0.08882732689379999,0.11301626265
26,0.20800000000000013,0.46965694427500004,4.15361356735,0.715470254421,0.727465033531,0.09641996026039999,0.147018611431
27,0.21500000000000014,0.582336008549,4.05666446686,0.554833054543,0.52835047245,0.10932907462099999,0.20690828561799998
28,0.22400000000000014,0.6906713843350001,4.1057672500599995,0.693998873234,0.41652792692199997,0.105250895023,0.26824381947500003
29,0.23100000000000015,0.797578692436,4.07706737518,0.7923039197920001,0.7277423143389999,0.127107381821,0.292646497488
30,0.24000000000000016,0.7477961778640001,3.9961915016199994,1.01527714729,0.573803603649,0.135880559683,0.301819801331
31,0.24700000000000016,0.723796784878,4.009121894840001,1.04698491096,0.7172636985780001,0.104037493467,0.315908879042
32,0.25600000000000017,0.797642230988,4.06283473969,0.679681897163,0.729561150074,0.12463882565500001,0.24371157586599998
33,0.2630000000000002,0.85226804018,4.00358057022,0.605433166027,0.313007414341,0.14361768961,0.136475786567
34,0.2720000000000002,0.927827298641,3.9787406921399997,0.527096807957,0.557271778584,0.14785137772600002,0.0374839603901
35,0.2800000000000002,0.835555672646,3.9311466217,0.64923286438,0.675642549992,0.124868825078,0.0327012762427
36,0.2880000000000002,0.862099409103,4.04455947876,0.79044008255,0.48714792728399997,0.146988213062,0.0750814750791
37,0.2960000000000002,0.68525159359,4.207967758180001,0.9676403999330001,0.725200235844,0.145132184029,0.154662624002
38,0.3040000000000002,0.6587766408919999,4.353352069850001,0.830754160881,0.6726710796359999,0.137369424105,0.219919323921
39,0.3120000000000002,0.558416604996,4.37854480743,0.8694853782649999,0.37322452664399997,0.0943912863731,0.274111390114
40,0.32000000000000023,0.5959062576290001,4.1159954071,0.948826730251,0.550570189953,0.11740744113900001,0.318379789591
41,0.32700000000000023,0.443264305592,4.11229705811,1.00162816048,0.7484167218209999,0.131354168057,0.307276964188
42,0.33500000000000024,0.44370466470700004,4.01691246033,0.8105078935619999,0.527806460857,0.11807595193399999,0.231246709824
43,0.34300000000000025,0.47208780050300003,4.12959718704,0.760829150677,0.541560053825,0.137365460396,0.10768444836100001
44,0.35200000000000026,0.529809296131,4.0943570137,0.551338613033,0.649231791496,0.144776925445,0.10228972137
45,0.36000000000000026,0.58648455143,3.96312236786,0.484835803509,0.535657763481,0.154101625085,0.17928981781
46,0.36800000000000027,0.6857736706730001,3.87207841873,0.781621456146,0.39274334907499997,0.147136390209,0.23695251345600002
47,0.3750000000000003,0.736120820045,3.6134634017900003,1.00483942032,0.52581769228,0.1213760674,0.26610690355300004
48,0.3830000000000003,0.7825621366500001,3.4552664756800002,0.8238778710369999,0.7311223745350001,0.142819106579,0.284947901964
49,0.3920000000000003,0.8960079550740001,3.64430379868,0.6806915402410001,0.577086210251,0.142089903355,0.313378632069
50,0.3990000000000003,0.950755119324,3.8304686546300006,0.616146683693,0.423848807812,0.139790043235,0.209119707346
51,0.4070000000000003,0.861525952816,3.75275492668,0.7061319351199999,0.541534364223,0.16167317330800002,0.100844651461
52,0.4150000000000003,0.8206744790080001,3.8391714096099996,0.62899851799,0.671910524368,0.144059836864,-0.006234135478729999
53,0.4230000000000003,0.741723418236,3.8397858142900003,0.892241358757,0.688441932201,0.161937505007,0.048371002078099995
54,0.4310000000000003,0.603627920151,3.6756424903900005,0.998089075089,0.494629919529,0.149871349335,0.131286561489
55,0.43900000000000033,0.5914437770840001,3.77805137634,0.8837103843690001,0.382214665413,0.147519528866,0.20877587795299998
56,0.44700000000000034,0.568613052368,3.7083141803699995,0.7962027788160001,0.518823981285,0.179038375616,0.261200487614
57,0.45500000000000035,0.599063575268,3.8015570640599994,0.6565579175949999,0.6303660869600001,0.149387359619,0.289567023516
58,0.46300000000000036,0.551957249641,3.5891056060800004,0.8194041252140001,0.652398705482,0.13982902467299999,0.252035140991
59,0.47100000000000036,0.570209860802,3.6154127121,0.861773371696,0.54300647974,0.141849890351,0.162745907903
60,0.47900000000000037,0.599011063576,3.6877403259300006,0.948912978172,0.46701622009300003,0.140702515841,0.11923010647299999
61,0.4870000000000004,0.7174909114839999,3.6543366908999997,0.646853089333,0.49894082546199997,0.152908608317,0.190350845456
62,0.4960000000000004,0.8967654705050001,3.4369535446199997,0.771642684937,0.60574400425,0.155714899302,0.281921565533
63,0.5040000000000003,0.949640154839,3.39361190796,0.7284674644470001,0.636938929558,0.14804898202400002,0.32906538248100003
64,0.5120000000000003,0.9870485067370001,3.40913772583,0.637614607811,0.669077455997,0.15137296915100001,0.337037950754
65,0.5200000000000004,0.8888462185860001,3.59538173676,0.9029991626739999,0.5699726939199999,0.16625922918299998,0.284790158272
66,0.5270000000000004,0.820997476578,2.86080622673,1.57588624954,0.453082531691,0.138502284884,0.170966744423
67,0.5360000000000004,0.884751498699,2.97653341293,1.55509924889,0.402465641499,0.15246322751,0.0505768582225
68,0.5440000000000004,0.672920703888,2.8947587013200002,1.35392355919,0.523023605347,0.152753591537,0.0316130891442
69,0.5520000000000004,0.673940300941,2.48415708542,1.108907938,0.5579614639280001,0.157242178917,0.114889740944
70,0.5600000000000004,0.662115871906,2.25458621979,1.4630722999599999,0.599123239517,0.130792737007,0.20735147595400003
71,0.5670000000000004,0.707953333855,2.33265590668,1.4858760833700002,0.621412873268,0.139238148928,0.24315071106
72,0.5760000000000004,0.7139197587970001,2.16679525375,1.37973606586,0.691670894623,0.121854513884,0.274239957333
73,0.5840000000000004,0.7596398592,2.34971880913,1.75604212284,0.728123009205,0.140575110912,0.28863632679
74,0.5920000000000004,0.77437722683,2.18137049675,1.3897390365600002,0.689005017281,0.136824086308,0.22656124830200003
75,0.6000000000000004,0.8354619741439999,2.3245639800999998,1.58639383316,0.641378998756,0.117386132479,0.144230231643
76,0.6090000000000004,0.827924370766,2.1120052337599997,1.3824777603100002,0.594766736031,0.13861429691299998,0.06778491288420001
77,0.6160000000000004,0.875502109528,2.1424944400799997,1.74158346653,0.5617449879649999,0.143383949995,0.0943428426981
78,0.6250000000000004,0.902445316315,1.94418096542,1.5587210655200001,0.511600375175,0.144448727369,0.133743405342
79,0.6320000000000005,0.8648919463160001,2.16481256485,1.8103647232099997,0.500619292259,0.13177344203,0.20428493619000002
80,0.6400000000000005,0.78623855114,2.00817799568,1.57994937897,0.434703528881,0.127131789923,0.234917998314
81,0.6480000000000005,0.80963242054,2.11408352852,1.7481479644799998,0.482315093279,0.127897903323,0.23831152915999998
82,0.6560000000000005,0.788256347179,2.24035835266,1.8319623470299997,0.46099811792400003,0.141186282039,0.25172355771099997
83,0.6630000000000005,0.768765985966,2.22647285461,1.8088808059700001,0.45998817682300003,0.11095252633099999,0.26766705513
84,0.6720000000000005,0.774478793144,2.237844944,1.9128711223599997,0.478379935026,0.120603308082,0.2857888937
85,0.6800000000000005,0.6833355426790001,2.1529633998900004,1.75276064873,0.464609622955,0.131625860929,0.286847800016
86,0.6870000000000005,0.62127405405,2.07945871353,1.8473879098900001,0.46168264746699994,0.12506416439999998,0.293801724911
87,0.6960000000000005,0.6745127439499999,2.13538455963,1.85754728317,0.432004749775,0.128038823605,0.280839771032
88,0.7040000000000005,0.585584461689,1.9703984260599998,1.64880442619,0.42810934782,0.12174603343,0.262542277575
89,0.7120000000000005,0.581121206284,1.98792135715,1.8823456764200002,0.42457771301299996,0.113219991326,0.268043875694
90,0.7200000000000005,0.527354598045,2.03109884262,1.6958147287399998,0.443683028221,0.11859627068,0.243017762899
91,0.7280000000000005,0.37910091876999996,1.89582777023,1.6725364923500001,0.42330491542800003,0.11190237104900001,0.22410869598400002
92,0.7360000000000005,0.649681448936,2.10129404068,2.03944587708,0.34869742393500003,0.118531763554,0.262522280216
93,0.7440000000000005,1.16118073463,2.62611103058,2.21489882469,0.241701006889,0.135230451822,0.23875361680999999
94,0.7520000000000006,1.4545660018900002,2.8519556522400005,2.1674785614,0.158086657524,0.175100296736,0.24908795952799997
95,0.7600000000000006,1.37657785416,3.06783175468,2.32756567001,0.132304191589,0.133074849844,0.163342773914
96,0.7680000000000006,1.34585630894,3.15048265457,2.52681922913,0.210427224636,0.16936741769299998,0.0934399291873
97,0.7760000000000006,1.46935784817,3.1989464759799997,2.63900303841,0.199045792222,0.13342839479399998,0.18969476223
98,0.7840000000000006,1.33605933189,3.1844024658200003,2.59711265564,0.034588098526,0.14500066638,0.34930181503300006
99,0.7920000000000006,1.45464611053,3.1437435150099997,2.65462803841,-0.128927841783,0.123784184456,0.388406157494
100,1.0030000000000006,1.208070755,2.6707539558400004,3.10163497925,-0.147270828485,0.300059586763,0.331465452909
101,1.0080000000000005,1.4071269035299998,2.60211038589,3.07498216629,0.0463947281241,0.277433216572,0.239246875048
102,1.0160000000000005,1.0197613239299999,2.48402476311,2.84847974777,0.10833013057700001,0.291286408901,0.36368638277099996
103,1.0240000000000005,1.05642282963,2.60994791985,3.12647104263,0.120771467686,0.261493563652,0.349938154221
104,1.0320000000000005,1.25487661362,2.6987285614,3.0897421836900003,-0.06642080843449999,0.24832490086599998,0.31206542253499997
105,1.0400000000000005,1.00196027756,2.60352420807,3.00383710861,-0.123482562602,0.244159698486,0.295500576496
106,1.0480000000000005,1.1917080879200002,2.4806118011500002,2.9723505973799997,-0.0279065649956,0.19916562735999999,0.17541387677200002
107,1.0560000000000005,0.999786019325,2.5182559490200003,3.1019320487999997,-0.044694647193,0.183811485767,0.168143004179
108,1.0640000000000005,1.18849873543,2.72178411484,3.02032089233,0.0667288154364,0.119556084275,0.0888390615582
109,1.0720000000000005,1.07998585701,2.63651943207,2.9274663925200004,0.08824278414249999,0.0677869319916,0.211065798998
110,1.0800000000000005,0.973062396049,2.57714009285,3.02203440666,0.0469013489783,0.0548554584384,0.118747219443
111,1.0880000000000005,1.14956259727,2.59795308113,3.0780191421499996,-0.0873419195414,0.026120826601999998,0.320076435804
112,1.0960000000000005,0.891214609146,2.74182987213,3.13666510582,-0.192665159702,0.000801166519523,0.200041815639
113,1.1040000000000005,1.03003287315,2.76643800735,3.19686722755,0.0211608111858,0.0312151536345,0.337913841009
114,1.1120000000000005,1.15963685513,2.7017934322400006,2.9927690029100003,0.108444020152,0.0441784523427,0.34223636984800004
115,1.1200000000000006,1.1730055809,2.5573987960799998,3.2025909423799996,0.12001201510399999,0.0674993991852,0.326647937298
116,1.1280000000000006,1.19038999081,2.61472678185,3.19610738754,0.029127554968,0.0490503981709,0.332803726196
117,1.1360000000000006,0.9108244776729999,2.51021957397,3.0960409641299997,-0.16446359455600001,0.0846564397216,0.275960206985
118,1.1440000000000006,1.12700772285,2.44479370117,2.94957876205,-0.0371736511588,0.11345197260399999,0.22688803076699998
119,1.1520000000000006,1.21411693096,2.54197525978,3.20069289207,-0.0448199436069,0.09906347095969999,0.13537597656199998
120,1.1600000000000006,1.00118994713,2.43839001656,3.1860313415499997,0.107576400042,0.12799191474899999,0.213052272797
121,1.1680000000000006,1.17586541176,2.5071387291,2.86434078217,0.11782827973400001,0.17327636480300002,0.07386646419760001
122,1.1760000000000006,1.1623247861900001,2.48590970039,3.2223539352399997,-0.0566024966538,0.17165443301199998,0.25342369079599997
123,1.1840000000000006,1.2478647232100002,2.4094133377099998,3.14074516296,-0.123575419188,0.217963635921,0.1393417418
124,1.1920000000000006,1.0563777685200002,2.48005580902,2.96795701981,-0.104133345187,0.196685373783,0.287424951792
125,1.2000000000000006,1.0891296863600002,2.63614940643,3.11477422714,0.11905311048,0.264021724463,0.232388436794
126,1.2080000000000006,1.2883721590000001,2.59517812729,3.3132605552700003,0.0981724113226,0.27202039956999996,0.352660894394
127,1.2160000000000006,0.8830163478849999,2.49110889435,2.8898940086400002,0.0241637732834,0.260634481907,0.30576509237300004
128,1.2240000000000006,0.8663372397419999,2.5192019939400003,2.9714727401700003,-0.045878782868400005,0.29519712925,0.39782956242600004
129,1.2320000000000007,1.1113947629899998,2.4795999527,3.3248367309599995,-0.12922540307,0.27795702219,0.310487926006
130,1.2400000000000007,0.926367461681,2.44405961037,3.2049908638,0.05871052294969999,0.285889297724,0.272266298532
131,1.2480000000000007,1.1228682994799999,2.49091029167,3.02001047134,0.11780405044600001,0.249917924404,0.288826584816
132,1.2560000000000007,0.9917445778849999,2.55067825317,3.13426733017,0.10627232492000001,0.209848225117,0.152326837182
133,1.2640000000000007,1.14576232433,2.62175798416,3.30993795395,-0.0828073695302,0.194999143481,0.226482063532
134,1.2720000000000007,1.10132694244,2.49929690361,3.0631442069999997,-0.17827135324499999,0.148403465748,0.12932921945999998
135,1.2800000000000007,0.980259299278,2.3230831623099997,3.28448963165,0.0340067893267,0.132717639208,0.17579153180100002
136,1.2880000000000007,1.17078840733,2.36974239349,3.22522878647,0.0757603645325,0.0728764086962,0.0872234404087
137,1.2960000000000007,0.933182239532,2.32065105438,2.88830900192,0.110008195043,0.008954652585090001,0.22012335062
138,1.3030000000000006,1.09735512733,2.2950668335,3.28067016602,0.014876651577700002,0.0835284739733,0.09632956981660001
139,1.3120000000000005,1.1599249839799999,2.37752628326,3.2114024162299994,-0.151291251183,0.027878917753699998,0.303025513887
140,1.3190000000000004,1.11257600784,2.45450019836,2.98491621017,0.0399899445474,0.0602726489305,0.166653677821
141,1.3280000000000003,1.09083604813,2.50309634209,3.28631591797,0.064677208662,0.0548627525568,0.311418265104
142,1.3360000000000003,1.0310561657,2.53772163391,2.96489810944,0.09438037872310001,0.0718857049942,0.246264442801
143,1.3440000000000003,1.29118347168,2.43124580383,3.0753159523,-0.031731367111200004,0.138304263353,0.35150423645999995
144,1.3520000000000003,0.9058381319050001,2.3981873989099998,3.3489327430699998,-0.20696553587900002,0.102552786469,0.271008998156
145,1.3600000000000003,0.952534675598,2.49223780632,3.1679401397699998,0.0162619072944,0.16412808000999998,0.35833328962300004
146,1.3680000000000003,1.06067490578,2.4337832927700003,3.2327280044599997,0.08808255940680002,0.16501411795600002,0.278682470322
147,1.3760000000000003,0.9352968931200001,2.44695448875,3.34670782089,0.0984025597572,0.203065186739,0.341097593307
148,1.3840000000000003,1.13375234604,2.38015842438,3.13091516495,-0.0715552419424,0.21801440417800003,0.337997406721
149,1.3920000000000003,1.0369160175299998,2.3041141033200003,3.1950964927700003,-0.18117251992199998,0.220999419689,0.292762994766
150,1.4000000000000004,1.06522548199,2.3102917671200003,3.25832819939,0.06716212630269999,0.25953745842,0.31174385547600003
151,1.4080000000000004,0.969446897507,2.27976608276,2.9123852252999995,0.138307645917,0.282859444618,0.285719841719
152,1.4160000000000004,1.0683631896999999,2.39046311378,3.29319143295,0.04985273629430001,0.30758908391,0.272247642279
153,1.4240000000000004,1.11627554893,2.4062504768400004,2.92128896713,-0.113705307245,0.300254195929,0.23983117938
154,1.4320000000000004,0.8980227112770001,2.4707026481599996,3.3057708740200002,-0.0730370432138,0.290344744921,0.271145522594
155,1.4400000000000004,1.16987323761,2.51048445702,3.20257592201,0.118276707828,0.324438124895,0.17259517312
156,1.4480000000000004,1.0377814769700002,2.48800206184,3.14845848083,0.12457351386499999,0.292741119862,0.253081202507
157,1.4560000000000004,1.17619109154,2.4704473018599997,3.3874502182,-0.0297407507896,0.281925171614,0.132729962468
158,1.4640000000000004,0.9635642766949999,2.4588882923099997,3.30589580536,-0.10355414450200001,0.261119991541,0.160976052284
159,1.4720000000000004,1.22136700153,2.5013251304599997,3.3056395053900003,-0.052044454962,0.22335472703,0.104876115918
160,1.4800000000000004,1.00803971291,2.43898582458,3.50017261505,0.13057100772900002,0.18841910362199998,0.177197322249
161,1.4880000000000004,0.9945893287659999,2.37887978554,3.0478053093,0.0681789591908,0.161786496639,0.11751830577899999
162,1.4960000000000004,1.2951897382700002,2.3645274639099996,3.4647321701,-0.144821614027,0.139539718628,0.222945421934
163,1.5040000000000004,0.894470095634,2.34825229645,3.1243896484400002,-0.058408822864300006,0.0647535175085,0.131229519844
164,1.5120000000000005,1.0820424556700001,2.15340590477,3.4182100296,0.0893741622567,0.0684001371264,0.18597263097800001
165,1.5200000000000005,1.0294380187999999,1.9645566940299999,3.2259109020200003,0.102602854371,0.028898583725099996,0.0830169543624
166,1.5280000000000005,1.15683627129,1.87752437592,3.2581305503799998,-0.0424575060606,0.034203801304099994,0.182354420424
167,1.5360000000000005,0.924503207207,1.73073339462,3.29434728622,-0.18175685405699998,0.027812305837900002,0.0589502863586
168,1.5440000000000005,1.07862484455,1.6248550415,3.16614103317,0.087280601263,0.0512881949544,0.211423233151
169,1.5520000000000005,1.07841134071,1.63436865807,3.35362648964,0.15154433250399998,0.045996438711900005,0.10502757132099999
170,1.5600000000000005,0.9949746131899999,1.55463194847,3.33957099915,-0.0118029341102,0.0631358623505,0.165453314781
171,1.5680000000000005,1.2320561409,1.47266316414,3.3048853874199997,-0.11134956777100001,0.0891826227307,0.121479660273
172,1.5760000000000005,0.8602886199950001,1.50464344025,3.27260541916,-0.0744561702013,0.0636854767799,0.20361100137200003
173,1.5840000000000005,1.0703098774,1.43156242371,3.25522375107,0.185294851661,0.12860542535800001,0.09115342050789998
174,1.5920000000000005,1.0217859745,1.34962821007,3.44916677475,0.0452152267098,0.11308120191099999,0.218610316515
175,1.6000000000000005,1.09969055653,1.4001312255899998,3.1476068496700003,-0.14507892727900001,0.13493727147600001,0.135939344764
176,1.6080000000000005,0.9234475493430001,1.35592675209,3.3820834159900004,-0.042175777256500006,0.163313478231,0.184349730611
177,1.6160000000000005,1.06488513947,1.2637693881999998,3.1578536033599995,0.142394199967,0.160451456904,0.167761862278
178,1.6240000000000006,0.944458782673,1.2464210987100002,3.3902831077599997,0.0371416732669,0.176461026073,0.25961500406300003
179,1.6320000000000006,0.973850250244,1.2148337364200001,3.2266836166400004,-0.08782804757360001,0.215657830238,0.208770036697
180,1.6400000000000006,1.1363670826,1.1870342493100001,3.4668128490400005,-0.08365269005300001,0.245658785105,0.311236858368
181,1.6480000000000006,1.01034712791,1.17895925045,3.23421859741,0.157797709107,0.209573730826,0.311619877815
182,1.6560000000000006,1.08284664154,1.19250655174,3.4511723518400004,0.05487814545630001,0.27698853611900004,0.318903803825
183,1.6640000000000006,0.8598880767820001,1.12161433697,3.3110823631299997,-0.18221488595,0.248614996672,0.318208366632
184,1.6720000000000006,1.1341776847799998,1.13775086403,3.4317650795,-0.0226178076118,0.268116533756,0.33015987277
185,1.6790000000000005,1.05307281017,1.1330281495999999,3.1173958778400004,0.11397748440500001,0.24150210619000004,0.330837130547
186,1.6880000000000004,1.1436729431200001,1.16807579994,3.41477012634,0.0557975620031,0.215321704745,0.300732791424
187,1.6960000000000004,0.8756158947939999,1.10772252083,2.99819612503,-0.117377772927,0.206552892923,0.36802989244499995
188,1.7030000000000003,1.27650260925,1.22820627689,3.390396595,-0.0598476752639,0.175321534276,0.23662057519000002
189,1.7120000000000002,0.927345395088,1.24260616302,3.18970727921,0.15408502519099998,0.11523286998299999,0.315019875765
190,1.7200000000000002,1.04618859291,1.33495950699,3.4398882389099996,0.0488428287208,0.10460298508400001,0.190667659044
191,1.7280000000000002,0.618997395039,1.43230926991,3.13234853745,-0.138293176889,0.0462661460042,0.21270558237999998
192,1.7360000000000002,0.591636061668,1.30617213249,3.0955522060400003,0.0799972340465,0.059228241443600005,0.0300056431442
193,1.7440000000000002,0.351328909397,1.246945858,2.8169732093799995,0.0981746464968,-0.0152120692655,0.13661782443499998
194,1.7520000000000002,0.477894544601,1.27388310432,2.74247217178,-0.06767925620080001,-0.0185055229813,0.0665908902884
195,1.7600000000000002,0.25472253561,1.30651068687,2.9759864807099996,0.0149434003979,-0.017104672268000002,0.21768425405000003
196,1.7680000000000002,0.506864726543,1.2238202095,2.6757633686099997,0.170194804668,-0.012248967774200002,0.296506643295
197,1.7760000000000002,0.231325000525,1.2842453718200002,2.8855714798000003,-0.179776892066,-0.0162267107517,0.051874861121199996
198,1.7840000000000003,0.433396190405,1.4698863029499998,2.38899755478,0.17657497525199997,0.0282654799521,0.10542720556299999
199,1.7920000000000003,0.45377317071,1.49682927132,2.74006867409,0.0229906756431,-0.0188984200358,0.302907586098
200,1.8280000000000003,0.19677302241300001,1.37085652351,2.63250827789,0.010967455804299999,0.0721526443958,0.103903397918
201,1.8320000000000003,0.421526044607,1.3688558340099999,2.82517719269,0.09677006304260001,0.010026508942200002,0.128657251596
202,1.8400000000000003,0.42842772603,1.31687128544,2.58926534653,0.148211598396,0.0947542339563,0.162514477968
203,1.8480000000000003,0.334388166666,1.1946079731,2.64501237869,-0.140391275287,0.0396672338247,0.126402229071
204,1.8560000000000003,0.224912166595,1.34565591812,2.67493844032,0.0581020340323,0.0867970883846,0.270340204239
205,1.8640000000000003,0.150010451674,1.34740889072,2.4712290763900002,0.20574802160300001,0.09439441561699999,0.025339435786
206,1.8710000000000002,-0.0560839027166,1.35515475273,2.45054078102,0.10238826274900001,0.06844986975190001,0.0428417995572
207,1.8800000000000001,0.192408025265,1.4663934707600002,2.49907064438,-0.0417844280601,0.08343920111660001,0.251576662064
208,1.8880000000000001,0.24287649989100002,1.50429546833,2.49736642838,0.00550104724243,0.0933154523373,0.210927158594
209,1.8960000000000001,0.22029572725299998,1.54275739193,2.65075588226,0.169215410948,0.101102486253,0.07160568982360001
210,1.9040000000000001,0.23861467838300002,1.4927622079799998,2.7278523445099996,0.21288201212900001,0.101634010673,0.0495791509748
211,1.9120000000000001,0.147976607084,1.49077165127,2.7608509063700004,0.196964144707,0.11211924254899999,0.12340882420499999
212,1.9200000000000002,0.211153239012,1.57228517532,2.66120123863,0.151492774487,0.09930254518989999,0.18567302823100001
213,1.927,-0.036878321319800005,1.67408680916,2.51116967201,0.08884584903719998,0.104880653322,0.17318148910999998
214,1.935,-0.323658883572,1.88650655746,2.16588950157,0.18893024325399999,0.10840681940300001,0.13868868351
215,1.943,0.08926219493149999,1.37787795067,3.1362080574,0.14489081502,0.108875915408,0.158656954765
216,1.952,0.6697809100150001,1.1570352315899999,3.44435834885,0.204873412848,0.134290754795,0.25092333555199997
217,1.96,0.48214638233199997,1.18227648735,3.2868432998699997,0.0684905797243,0.14681892097000002,0.235047459602
218,1.968,0.7271183729170001,1.15944743156,3.18593049049,0.0402895957232,0.139584481716,0.25252702832199997
219,1.976,0.7832368016240001,1.28486943245,3.2675504684400005,0.0198548994958,0.12737338244899998,0.251836121082
220,1.9849999999999999,0.768928587437,1.19135665894,3.25892114639,0.028049826622,0.155009031296,0.25953155755999996
221,1.9919999999999998,0.7233616113660001,1.16108047962,2.88707232475,-0.031246252358,0.144837737083,0.27862697839699996
222,2.001,0.622239410877,0.9845041036609999,2.99910449982,-0.11300490796599999,0.136238157749,0.284782767296
223,2.008,0.7389915585519999,0.971232891083,3.0008161068,-0.118847072124,0.134920954704,0.285263717175
224,2.016,0.690317749977,0.887786448002,3.34124660492,-0.0921542569995,0.157901972532,0.280429005623
225,2.023,0.690431892872,0.8818169832230001,3.3937461376200004,0.0153715200722,0.145732969046,0.266888916492
226,2.031,0.61502301693,0.875699341297,3.38804101944,0.147784546018,0.14569953084,0.26226910948800003
227,2.039,0.519808113575,1.01507544518,3.0949823856400003,0.21396267414099998,0.144293472171,0.216730207205
228,2.047,0.538303852081,1.23277926445,3.18937063217,0.18191602826099998,0.134962186217,0.158346951008
229,2.056,0.551351010799,1.20499706268,3.41420078278,0.11169107258300001,0.15994739532500002,0.10211567580700001
230,2.064,0.555459976196,1.2562247514700002,3.5861661434199994,0.0313233062625,0.164613544941,0.0861365273595
231,2.071,0.647613525391,1.33268642426,3.3818635940599995,-0.0442222952843,0.15076893568,0.0339651070535
232,2.08,0.663311243057,1.2144100666,3.33460330963,-0.0323513485491,0.164541870356,0.013289986178299998
233,2.088,0.755705356598,1.14288830757,3.33306217194,0.0211389474571,0.181669324636,0.051321990788
234,2.096,0.8157712221150001,1.19004452229,3.42225170135,0.17638450861,0.165998324752,0.100120894611
235,2.104,0.816789984703,1.0711897611599999,3.6223635673500003,0.149885490537,0.15786851942500002,0.149594575167
236,2.112,0.890139400959,1.18511211872,3.4887552261400003,-0.00201771501452,0.181448400021,0.187903761864
237,2.12,0.902440071106,1.16010355949,3.60196948051,-0.14347982406600002,0.18815174698800002,0.256970107555
238,2.128,0.894466757774,1.09515058994,3.42886209488,-0.110974192619,0.176878541708,0.273816406727
239,2.136,0.939090847969,1.053155303,3.33193922043,0.15687517821799998,0.17062398791299999,0.300894826651
240,2.144,0.9931207895280001,1.12114953995,3.79525995255,0.19998593628400002,0.18511122465100002,0.23821535706500002
241,2.152,0.828446745872,1.1503523588200002,3.4365429878199993,0.006341001018880001,0.191500514746,0.165618538857
242,2.16,0.766275048256,0.872662901878,3.6235425472300005,-0.0449028238654,0.196694463491,0.10988441109699999
243,2.168,0.70030194521,1.02800345421,3.50756597519,0.06323641538619999,0.19149103760699998,0.172135457397
244,2.176,0.437937915325,1.48699712753,2.8199133873,0.205234050751,0.18120037019299998,0.261241048574
245,2.184,0.303194403648,1.39245820045,2.97716808319,-0.0493278354406,0.194530457258,0.30540534853900003
246,2.192,0.412699759007,1.4290825128600002,2.80366921425,-0.0807252451777,0.192010447383,0.307028412819
247,2.2,0.368210375309,1.6361310482,2.8907752037,0.06445683538909999,0.20110711455299998,0.33678504824600003
248,2.208,0.431822538376,1.78560447693,2.8682608604400004,0.21658834815000003,0.195500761271,0.28531664609900004
249,2.216,0.54627841711,1.7082569599200002,2.8284206390400004,0.144789218903,0.185536891222,0.18282127380399998
250,2.224,0.582322537899,1.68241333961,2.99236917496,0.0133341643959,0.202767401934,0.08790478110310002
251,2.232,0.5181508064270001,1.9588701725,3.01448869705,-0.0520894899964,0.216586142778,0.0413198433816
252,2.24,0.552129507065,1.8920754194299998,2.85339236259,0.045658685267,0.186042129993,0.0313178226352
253,2.248,0.7151515483859999,1.94419753551,2.7002825737,0.200320661068,0.205484688282,0.0692998617887
254,2.2560000000000002,0.741622447968,1.85431432724,3.08934259415,0.149363934994,0.20905184745799998,0.113741695881
255,2.2630000000000003,0.723043739796,1.7010204791999999,2.9370708465599997,0.0219179876149,0.190063118935,0.155436724424
256,2.2710000000000004,0.747682750225,1.76721048355,2.6414713859599996,-0.07164554297919999,0.21002289652800002,0.179387554526
257,2.2800000000000002,0.704149127007,1.79971385002,2.5907671451599996,-0.0798565000296,0.196110576391,0.244448035955
258,2.2870000000000004,0.672056019306,1.71583354473,2.8801040649400003,-0.0584968850017,0.213090032339,0.23026783764400002
259,2.2950000000000004,0.624876141548,1.75383043289,2.81291389465,0.059992603957699994,0.211780071259,0.266783773899
260,2.3040000000000003,0.631915807724,1.74417841434,2.74683141708,0.237985879183,0.215443074703,0.263265073299
261,2.3120000000000003,0.541826248169,1.7156878709799999,2.43637490273,0.24693711102,0.213983625174,0.24872599542100002
262,2.3190000000000004,0.460816502571,1.74839127064,2.63636302948,0.187557280064,0.225588947535,0.214998245239
263,2.3280000000000003,0.36097508668899997,1.84699368477,2.7048039436299995,0.120418518782,0.22586974501600002,0.177674427629
264,2.3360000000000003,0.373884379864,1.81822061539,2.82144832611,0.100857064128,0.214647829533,0.15157981216900002
265,2.3430000000000004,0.408759236336,1.78854334354,2.86055517197,0.07104570418600001,0.20029219985,0.119371324778
266,2.3520000000000003,0.376704275608,1.7664802074400001,2.90247297287,0.04527097567919999,0.20550847053500002,0.10204744338999999
267,2.3600000000000003,0.379499584436,1.86203789711,2.66244745255,0.0359719693661,0.211421146989,0.09626000374560001
268,2.3680000000000003,0.34664583206200006,1.90472507477,2.49321389198,-0.000169167295098,0.21748206019400002,0.0758585482836
269,2.3760000000000003,0.349532485008,1.8270754814099996,2.5066728591900005,0.0219909772277,0.20761835575100002,0.07595547288660001
270,2.3840000000000003,0.318856924772,1.8793084621400002,2.4575252533,0.04083089530469999,0.21186247468,0.0733955651522
271,2.3920000000000003,0.14389671385299999,1.9093486070599996,2.3943245410900005,0.065629273653,0.21164403855799999,0.0470267012715
272,2.4000000000000004,0.0541597083211,2.23322677612,2.13275194168,0.143007814884,0.211848780513,0.0205414462835
273,2.4080000000000004,0.161733776331,1.9776089191400001,1.5140702724500001,0.238871827722,0.21864584088300001,0.0229820143431
274,2.4160000000000004,0.046586189419,1.28078007698,1.12553036213,0.30800172686599997,0.21607822179800001,0.045382421463699994
275,2.4240000000000004,0.134212300181,1.20341062546,0.990643501282,0.531879782677,0.213787004352,0.040801927447300004
276,2.4320000000000004,0.11003565043199999,1.14151740074,0.9025959372519999,0.6768010258670001,0.21293777227400001,0.0581269785762
277,2.4400000000000004,0.043928522616600005,1.02614593506,0.992544293404,0.7887737751010001,0.22163631022,0.0607302822173
278,2.4480000000000004,0.122860848904,1.044937253,0.869175434113,0.557058155537,0.215089917183,0.07522261142730001
279,2.4560000000000004,0.0675870105624,1.12748074532,0.746126532555,0.627279758453,0.21770837903,0.0669976919889
280,2.4640000000000004,0.136402368546,1.1851638555500001,0.55210518837,0.808647692204,0.22277140617400001,0.07327045500280001
281,2.4720000000000004,0.116768427193,1.1798160076100002,0.561160087585,0.620925784111,0.202563822269,0.0898390114307
282,2.4800000000000004,0.08943800628189999,1.19031703472,0.757827043533,0.7797243595119999,0.194436237216,0.068051636219
283,2.4880000000000004,0.11827777326099999,1.210714221,0.7409141063689999,0.631751358509,0.192750453949,0.08622300624849999
284,2.4960000000000004,0.137009203434,1.20532953739,0.35844856500600003,0.6350975632670001,0.194328501821,0.0594068393111
285,2.5040000000000004,0.137445449829,1.2312532663299998,0.8219808340070001,0.7619928717610001,0.19332373142200002,0.08694460988040001
286,2.5120000000000005,0.0827325433493,1.22068178654,0.459632694721,0.7083897590639999,0.17668151855500003,0.07258959859610001
287,2.5200000000000005,0.112774401903,1.3261398077,0.576605975628,0.576225042343,0.184773400426,0.09352482855319999
288,2.5280000000000005,0.171364188194,1.26634883881,0.6604304909709999,0.5558162927629999,0.191687226295,0.0773803517222
289,2.5360000000000005,0.158562943339,1.1839697361,0.539256334305,0.671873688698,0.179770037532,0.0676067247987
290,2.5440000000000005,0.19649675488499999,1.23904967308,0.6777225732800001,0.672137618065,0.160142615438,0.0904508754611
291,2.5520000000000005,0.202275469899,1.26452839375,0.628471136093,0.7023773789409999,0.171036869287,0.06011611968280001
292,2.5600000000000005,0.204590022564,1.195104599,0.7124494314190001,0.640353679657,0.167382955551,0.10466688871400001
293,2.5680000000000005,0.16241762042000002,1.12112569809,0.34739035368,0.686755955219,0.150031477213,0.08653232455250001
294,2.5750000000000006,0.180518373847,1.05230665207,0.627769827843,0.701582014561,0.143016546965,0.0742522776127
295,2.5830000000000006,0.18008577823600003,1.0695015192,0.363507330418,0.7548106312749999,0.14284755289599999,0.0809176266193
296,2.5910000000000006,0.164811789989,0.9896563887600001,0.270144253969,0.67821931839,0.12518951296800002,0.065436758101
297,2.6000000000000005,0.18897360563299997,0.814920186996,0.581999838352,0.671549916267,0.120412781835,0.0972235947847
298,2.6080000000000005,0.24979215860399998,0.753945112228,0.367989003658,0.668337106705,0.145471081138,0.0963205471635
299,2.6160000000000005,0.149292767048,0.930400729179,1.10070002079,0.702106118202,0.112077280879,0.08556623756889999
300,2.6440000000000006,0.251802653074,1.7416930198700002,1.09302294254,0.6759347915649999,0.0983783006668,0.0830415189266
301,2.6470000000000007,0.23963856697099997,1.64917469025,1.4018006324799999,0.652473986149,0.10583908110899999,0.09716300666330001
302,2.6560000000000006,0.265277445316,1.4590983390799999,1.1745462417599999,0.677373945713,0.0914575010538,0.0871484130621
303,2.6630000000000007,0.246862590313,1.38362169266,1.1934193372700002,0.642506361008,0.08913184702400001,0.105806492269
304,2.6720000000000006,0.246161580086,1.52420806885,1.2188949585,0.654568254948,0.0768922269344,0.131183952093
305,2.6800000000000006,0.172616362572,1.4804488420500002,1.04963302612,0.702549219131,0.0535680502653,0.09645585715770001
306,2.6870000000000007,0.161427333951,1.6285086870200003,1.03662312031,0.669860124588,0.068012021482,0.0970837697387
307,2.6950000000000007,0.192422658205,1.58755278587,1.2940783500700002,0.634718239307,0.0632481053472,0.094989657402
308,2.7040000000000006,0.135102316737,1.58499646187,0.94634449482,0.630578458309,0.0937110483646,0.11340624094
309,2.7120000000000006,0.207164525986,1.5456813573800001,1.22224199772,0.767680048943,0.042257148772499996,0.09885009378189999
310,2.7200000000000006,0.184619426727,1.5011484623,1.38912773132,0.701254308224,0.0343945175409,0.107601642609
311,2.7270000000000008,0.171267822385,1.40136766434,1.07399058342,0.667006611824,0.060912437736999996,0.117318108678
312,2.7350000000000008,0.171674802899,1.28674888611,1.1679573059100001,0.621849298477,0.0163700804114,0.10217384249
313,2.7430000000000008,0.150511831045,1.2680317163500001,1.14433836937,0.754270792007,0.0268731173128,0.09482485800979999
314,2.751000000000001,0.276028364897,1.3122709989499999,1.10959601402,0.666960537434,0.0201047956944,0.10851213336
315,2.759000000000001,0.16002176701999998,1.50038027763,1.2205978631999999,0.7142055034639999,0.038712725043300006,0.13373331725600002
316,2.767000000000001,0.149616524577,1.5039420127899998,0.925152242184,0.587649703026,0.022436521947400003,0.111108243465
317,2.775000000000001,0.0768240466714,1.34375405312,1.0517408847799998,0.746763706207,0.0322936959565,0.115796975791
318,2.783000000000001,0.156186670065,1.3699982166299998,1.31359577179,0.6776428818699999,0.0320417732,0.123326294124
319,2.7920000000000007,0.152113974094,1.49025344849,1.04475712776,0.6859797835349999,0.013495361432399999,0.149258285761
320,2.8000000000000007,0.174768611789,1.52336978912,1.1289730072,0.6348240971570001,0.0153232747689,0.125870794058
321,2.8080000000000007,0.16047616303,1.31883990765,1.03380918503,0.7243269681929999,0.033170286566,0.13515709340600002
322,2.8160000000000007,0.196091771126,1.45285236835,1.0769894123100001,0.75084322691,0.026817349717000002,0.133601173759
323,2.823000000000001,0.184674531221,1.63222336769,1.14636826515,0.696113944054,0.00812256522477,0.1383343786
324,2.831000000000001,0.158347189426,1.4546296596500001,1.02844071388,0.690113604069,0.00420303316787,0.168976455927
325,2.8400000000000007,0.139827698469,1.23028409481,1.3146177530299998,0.6734556555750001,-0.0014803592348499998,0.15598398447
326,2.8480000000000008,0.18081086874000002,1.29872298241,1.04754471779,0.724653363228,0.0044973781332399996,0.149701118469
327,2.8560000000000008,0.14509163796900001,1.16361379623,0.981517970562,0.667834818363,0.00936706736684,0.14428210258500002
328,2.863000000000001,0.158105805516,1.06511282921,1.1765379905700002,0.7290083169939999,-0.00794247537851,0.153874665499
329,2.871000000000001,0.17784142494199998,1.14790856838,0.982564151287,0.60901838541,0.0097743505612,0.161162793636
330,2.879000000000001,0.174546420574,1.32510912418,1.29334902763,0.855646252632,0.00926448777318,0.17358058691
331,2.888000000000001,0.155511006713,1.48534250259,1.0187046527899999,0.684940099716,-0.010899461805799999,0.192299991846
332,2.896000000000001,0.143318980932,1.41856014729,1.31393527985,0.744596123695,0.000283388886601,0.183965146542
333,2.904000000000001,0.11805609613700001,1.41240823269,1.17510545254,0.6557723283770001,-0.00809715501964,0.183577716351
334,2.911000000000001,0.148081153631,1.41820836067,1.1614210605600002,0.6740894317630001,-0.0257511660457,0.172910571098
335,2.919000000000001,0.159403413534,1.3527545929,1.20838057995,0.787478208542,-0.0335496217012,0.18225051462699998
336,2.927000000000001,0.163033559918,1.27899551392,1.15716040134,0.688380002975,-0.010083653032799999,0.205544561148
337,2.935000000000001,0.157869368792,1.4719648361200002,1.2464807033499998,0.7818406820300001,-0.0278944335878,0.20574849844
338,2.943000000000001,0.134470656514,1.42076921463,1.2989333868000001,0.601761817932,-0.027046285569700002,0.216988831758
339,2.952000000000001,0.11767160147399999,1.6815185546899998,1.7347078323400003,0.742704868317,-0.040349446237099997,0.20003542304000002
340,2.960000000000001,0.0887142121792,2.0998277664200002,1.52984201908,0.6932836771009999,-0.046439427882400006,0.20036439597600003
341,2.968000000000001,0.117962695658,2.01184415817,1.85191094875,0.760376155376,-0.0318282097578,0.196391016245
342,2.975000000000001,0.0995742157102,2.01132011414,1.64193320274,0.588174283504,-0.0548536032438,0.222983032465
343,2.984000000000001,0.0820478945971,2.12359690666,1.9776239395099997,0.687735557556,-0.0341566987336,0.22321389615499998
344,2.992000000000001,0.0878090858459,1.9625738859200001,1.66558432579,0.660314977169,-0.0549787804484,0.21685838699299997
345,3.000000000000001,0.10284194350199999,1.88936185837,1.70558381081,0.7342455387119999,-0.05269129574300001,0.204216957092
346,3.007000000000001,0.0717088133097,1.83109509945,1.8368046283700001,0.669727444649,-0.054208636283900005,0.22667054832
347,3.015000000000001,0.10868759453299999,1.9013011455500002,1.67149209976,0.610085368156,-0.0623957440257,0.220209538937
348,3.024000000000001,0.103661179543,2.11665153503,1.8479393720599997,0.6638807058330001,-0.07491140812639999,0.21053898334499999
349,3.032000000000001,0.0920073911548,2.15180921555,1.8184610605200002,0.64962297678,-0.0634478628635,0.212862819433
350,3.039000000000001,0.102265402675,2.23879003525,1.8333992958099996,0.7363264560699999,-0.0618857070804,0.214799463749
351,3.048000000000001,0.0672821551561,2.22332334518,1.9757506847400002,0.821501851082,-0.0807394236326,0.19904372096099998
352,3.056000000000001,0.068815767765,2.1332359314,1.8397071361500001,0.597344517708,-0.0685616955161,0.22667241096500002
353,3.064000000000001,0.07479412108660001,2.2326333522799997,2.0079967975599997,0.504446983337,-0.0673056691885,0.220752060413
354,3.072000000000001,0.09157167375089999,2.21524333954,1.9307265281700001,0.625198543072,-0.0636724382639,0.235827937722
355,3.079000000000001,0.0987219065428,1.97699570656,1.7825241088900003,0.603853166103,-0.064246982336,0.215579912066
356,3.087000000000001,0.159841299057,1.9681081771900002,1.5272963046999999,0.596217989922,-0.06794455647469999,0.200528264046
357,3.095000000000001,0.0316150858998,2.07932925224,1.8005969524400003,0.60527831316,-0.0628033280373,0.226193130016
358,3.103000000000001,0.128016754985,2.04785609245,1.7963265180599999,0.708165645599,-0.09092614054680001,0.21410904824700003
359,3.112000000000001,0.0551956444979,2.0968692302700003,2.1435215473199998,0.402894020081,-0.09405587613579999,0.214909523726
360,3.120000000000001,0.149791538715,2.08427929878,2.21282029152,0.561718046665,-0.07460771501060001,0.22142596542800003
361,3.128000000000001,0.132638156414,2.1793088913,2.15541005135,0.648738443851,-0.0662117600441,0.22299887239900001
362,3.136000000000001,0.0796802937984,2.10587882996,2.11576557159,0.6856704950329999,-0.065417997539,0.226754173636
363,3.144000000000001,0.07954153418539998,2.15260314941,2.26543664932,0.6214492917059999,-0.0455058440566,0.22769549489
364,3.152000000000001,0.0364462956786,2.81204366684,2.74899339676,0.35630881786300006,-0.0549530759454,0.21520854532699998
365,3.160000000000001,-0.7068616747859999,2.9861536026,1.8673837184900002,0.603854775429,-0.0877730995417,0.09573490917680001
366,3.168000000000001,-1.14747190475,2.80550050735,1.4571602344499999,0.504171848297,-0.12724865973,-0.053397923708
367,3.176000000000001,-1.22336053848,2.8236811161,1.4054324626899999,0.556903600693,-0.104853674769,-0.182201802731
368,3.184000000000001,-1.12826657295,2.75142240524,1.3235652446700001,0.569750666618,-0.133374005556,-0.28822183609
369,3.192000000000001,-1.13365423679,2.7591066360500003,1.1790163517,0.560773491859,-0.128804758191,-0.308852851391
370,3.200000000000001,-1.21972608566,2.8164277076700004,0.9664976596829999,0.533960938454,-0.16674169898,-0.174933716655
371,3.208000000000001,-1.3988547325100003,2.8932123184200003,0.961076378822,0.52220594883,-0.167560696602,-0.307460606098
372,3.216000000000001,-1.3728923797600001,3.0387802124000003,1.1331448554999999,0.5638247132299999,-0.15479092299900002,-0.46343007683799997
373,3.224000000000001,-1.4587819576299998,3.0618867874099998,1.1834080219299998,0.558214902878,-0.168642491102,-0.23103211820099998
374,3.232000000000001,-1.39044165611,3.06259298325,1.25698494911,0.5394150018689999,-0.187472969294,-0.178122192621
375,3.240000000000001,-1.26004302502,3.08589076996,1.3622521162,0.52245259285,-0.202001214027,-0.376359850168
376,3.247000000000001,-1.4317394495,3.1714224815400005,1.38283038139,0.522069334984,-0.222890868783,-0.20732781290999996
377,3.256000000000001,-1.55918443203,3.16564655304,1.39424681664,0.521582961082,-0.22101178765299997,-0.473797142506
378,3.264000000000001,-1.4346413612399997,3.1355164051099997,1.49979543686,0.498398840427,-0.260943889618,-0.0987232327461
379,3.272000000000001,-1.4279978275299998,3.1581172943099998,1.45632529259,0.475167363882,-0.28975605964699996,-0.320752620697
380,3.2790000000000012,-1.54539382458,3.15715479851,1.2098984718299999,0.5121892690659999,-0.28548759222,-0.331214308739
381,3.2870000000000013,-1.63260293007,3.27283191681,1.26158344746,0.5298274755479999,-0.289314866066,-0.18433138728100001
382,3.2950000000000013,-1.6201939582799998,3.39065217972,1.21497046947,0.50260925293,-0.325954407454,-0.40115898847599996
383,3.304000000000001,-1.7643527984599998,3.34342074394,1.3833425044999998,0.498805105686,-0.33652025461199997,-0.360504448414
384,3.3110000000000013,-1.52466547489,3.30250597,1.5205762386300001,0.514291226864,-0.277504384518,-0.130202561617
385,3.3190000000000013,-1.64342260361,3.3222079276999996,1.38411664963,0.515648066998,-0.298682689667,-0.244577050209
386,3.3270000000000013,-1.45169425011,3.2691378593400002,1.34880661964,0.5320452451709999,-0.274307459593,-0.441188514233
387,3.3350000000000013,-1.7991009950599999,3.24806070328,1.20549559593,0.553249657154,-0.27568939328200004,-0.37838962674099996
388,3.3430000000000013,-1.3993437290200001,3.1119081974,1.2125159502,0.5285617113109999,-0.213144287467,-0.49590870738000004
389,3.3510000000000013,-1.5731239318799999,3.18534851074,1.3125503063200001,0.556450068951,-0.18070608377500003,-0.372898638248
390,3.3590000000000013,-1.58723640442,3.2123665809599995,1.40858364105,0.573919892311,-0.164159953594,-0.424338459969
391,3.3670000000000013,-1.38353466988,3.19741439819,1.59657418728,0.602444112301,-0.157167121768,-0.29042246937800004
392,3.3750000000000013,-0.888353586197,3.1156949996900005,1.4200364351299999,0.670522928238,-0.077255398035,-0.389270424843
393,3.3840000000000012,-0.879979968071,2.94838619232,1.3429346084600002,0.666003584862,-0.0744223147631,-0.284666478634
394,3.3910000000000013,-0.924621701241,2.9686274528500003,1.1910164356200001,0.650718808174,-0.0653628930449,-0.319941878319
395,3.4000000000000012,-0.800083935261,2.94799137115,1.3736717700999999,0.661213755608,-0.101409062743,-0.244493886828
396,3.4080000000000013,-1.11812353134,2.7848238944999997,1.61089062691,0.689743518829,-0.057017676532300006,-0.203014194965
397,3.4150000000000014,-0.812317490578,2.80758571625,1.46169984341,0.7348114848139999,-0.064205929637,-0.216197922826
398,3.4240000000000013,-0.829773247242,2.79777431488,1.28957438469,0.7506095170970001,-0.10676454752699999,-0.138449773192
399,3.4310000000000014,-1.04680299759,2.86651825905,1.1460485458399998,0.739172816277,-0.11380446702199999,-0.191806361079
400,3.441000000000001,-0.992739021778,2.8340446949,1.4068348407700002,0.723010897636,-0.146561771631,-0.13951799273499998
401,3.4480000000000013,-1.0494995117200001,2.7278568744700005,1.6274335384399998,0.7228988409039999,-0.197110682726,-0.263080000877
402,3.4560000000000013,-0.828034162521,2.59975171089,1.67211318016,0.722025752068,-0.179807946086,-0.15008240938200001
403,3.4640000000000013,-1.07453465462,2.67618393898,1.63381397724,0.7306129932400001,-0.226292431355,-0.3784070611
404,3.4720000000000013,-1.1427564621,2.76656723022,1.30459320545,0.749438881874,-0.167597144842,-0.276498138905
405,3.4800000000000013,-0.752575457096,2.89404535294,1.31084537506,0.7648740410799999,-0.21592964231999998,-0.43311315774899994
406,3.4880000000000013,-0.7882285118100001,2.79643654823,1.40681362152,0.759344398975,-0.207392066717,-0.33059617876999997
407,3.4960000000000013,-1.02218961716,2.68136310577,1.52487444878,0.720260977745,-0.274715334177,-0.263991355896
408,3.5040000000000013,-0.918997943401,2.63646459579,1.59385979176,0.726577162743,-0.28581243753400004,-0.177601903677
409,3.5120000000000013,-0.931556284428,2.6116275787400003,1.7476619482,0.7274228334430001,-0.28844922781,-0.152986556292
410,3.5200000000000014,-0.789369225502,2.50982570648,1.6476125717200003,0.720398426056,-0.28381168842300003,-0.194586664438
411,3.5280000000000014,-1.03019535542,2.6423881053900002,1.3841202259099998,0.7112349271770001,-0.30131316185,-0.160267814994
412,3.5360000000000014,-0.8690230846410001,2.71483802795,1.3209900856,0.6656638383869999,-0.25029861926999997,-0.307054072618
413,3.5440000000000014,-0.6857784390449999,2.7915496826200004,1.38791310787,0.649427652359,-0.23356735706300003,-0.21939107775699998
414,3.5520000000000014,-0.885023236275,2.64266967773,1.5547809600799998,0.646988987923,-0.144557625055,-0.41155061125799997
415,3.5600000000000014,-0.9029112458230001,2.58956623077,1.6235618591299998,0.6340839266780001,-0.130342245102,-0.27065637707699997
416,3.5670000000000015,-1.12041175365,2.57292222977,1.6654479503600002,0.606009304523,-0.121663719416,-0.231458172202
417,3.5750000000000015,-1.02892267704,2.64845657349,1.7567726373700001,0.605121612549,-0.0770196691155,-0.20475138723900002
418,3.5830000000000015,-0.90625,2.58974981308,1.66010725498,0.616237938404,-0.055791996419400004,-0.121827453375
419,3.5910000000000015,-1.0362819433200001,2.5690269470200002,1.46851074696,0.5891547203059999,-0.0379887223244,-0.255192279816
420,3.6000000000000014,-0.964780032635,2.60600757599,1.52383136749,0.559162139893,-0.009866353124379999,-0.182401478291
421,3.6080000000000014,-0.692996144295,2.63368034363,1.5189845562,0.55730766058,-0.0226536877453,-0.395985543728
422,3.6160000000000014,-0.8807989954950001,2.64188480377,1.4911124706299999,0.550828039646,0.0280704945326,-0.344467937946
423,3.6240000000000014,-0.9828987121580001,2.62790584564,1.4685356616999998,0.541083335876,-0.0171070825309,-0.320252776146
424,3.6320000000000014,-0.964506268501,2.69339704514,1.54084634781,0.51836925745,-0.046191137284000004,-0.209698349237
425,3.6400000000000015,-1.00853168964,2.72453832626,1.5827999115,0.509337604046,-0.056451633572599996,-0.152791857719
426,3.6480000000000015,-0.768988311291,2.65335607529,1.59716045856,0.494872748852,-0.0876199007034,-0.22450733184799998
427,3.6560000000000015,-0.966195225716,2.67517566681,1.5328745841999998,0.511980891228,-0.105660229921,-0.197642341256
428,3.6640000000000015,-1.0449171066299998,2.6554350853,1.51874101162,0.49836361408200003,-0.117551758885,-0.37348559498800005
429,3.6710000000000016,-0.737061142921,2.65781402588,1.61415505409,0.48319458961499995,-0.14159794151799998,-0.300471246243
430,3.6800000000000015,-0.823496341705,2.6570327282,1.64472687244,0.5112996101380001,-0.116336300969,-0.305232703686
431,3.6880000000000015,-0.9817075133319999,2.60316252708,1.65726923943,0.48483783006700004,-0.178671866655,-0.159154295921
432,3.6960000000000015,-0.96995651722,2.5938787460299997,1.68103790283,0.479519754648,-0.214764118195,-0.128291577101
433,3.7030000000000016,-0.9766628742219999,2.5903415679900004,1.51150918007,0.467909812927,-0.22940450906800003,-0.289870142937
434,3.7120000000000015,-0.690876066685,2.58328533173,1.3045420646700001,0.47231644392,-0.24090668559099998,-0.22766804695099999
435,3.7190000000000016,-0.892376184464,2.64803647995,1.46009874344,0.464839398861,-0.289394557476,-0.427955061197
436,3.7270000000000016,-1.0386464595799998,2.64358448982,1.4073405265799999,0.45920056104699997,-0.260073959827,-0.271086782217
437,3.7350000000000017,-0.8875480890270001,2.6404542923,1.4611122608200002,0.474530637264,-0.256428599358,-0.22516933083500001
438,3.7430000000000017,-0.8323912024500001,2.59684848785,1.3983550071700002,0.463710606098,-0.23427547514400002,-0.214926540852
439,3.7510000000000017,-0.948979973793,2.65993309021,1.3749506473500002,0.44608676433600003,-0.231672883034,-0.113040879369
440,3.7600000000000016,-0.896474838257,2.65297102928,1.3579201698299999,0.44631144404399997,-0.176059305668,-0.38502353429799996
441,3.7680000000000016,-0.990330338478,2.6702351570099996,1.4673498868900001,0.44717603921899995,-0.143857166171,-0.273283720016
442,3.7760000000000016,-1.01774942875,2.62135696411,1.47450482845,0.44969639182099996,-0.0957786440849,-0.285223811865
443,3.7840000000000016,-0.727176785469,2.59117889404,1.42840075493,0.439345180988,-0.08124154806139999,-0.211951926351
444,3.7910000000000017,-0.897671639919,2.6778821945200004,1.49806153774,0.450149923563,-0.046525232493900004,-0.105129800737
445,3.8000000000000016,-0.957871794701,2.67901802063,1.57009160519,0.42589098215099996,-0.0243157614022,-0.328334957361
446,3.8080000000000016,-0.761400461197,2.6246953010599996,1.63549757004,0.46070605516400004,-0.0341280587018,-0.259937793016
447,3.8160000000000016,-1.10482692719,2.54975271225,1.6440153121899999,0.45665630698200005,-0.0573238693178,-0.327876865864
448,3.8240000000000016,-0.967341482639,2.26133751869,1.87754917145,0.46727171540299994,-0.0706761926413,-0.213214755058
449,3.8320000000000016,-0.824865221977,2.1494832038900005,2.0411219596900003,0.43741232156800003,-0.0843363925815,-0.0977034047246
450,3.8390000000000017,-1.0570211410500001,1.9764020443,2.20918083191,0.447092115879,-0.12908743321900001,-0.30240103602400004
451,3.8470000000000018,-1.1230891943,1.85862278938,2.28512096405,0.44929254055,-0.123190119863,-0.247747689486
452,3.8560000000000016,-0.75975060463,1.8373022079499999,2.45344734192,0.453743457794,-0.16284199059,-0.38751307129900003
453,3.8640000000000017,-0.8645841479299999,1.75354862213,2.45392346382,0.449478745461,-0.154049217701,-0.258219957352
454,3.8720000000000017,-0.93484377861,1.7496502399400002,2.44183444977,0.44350337982199994,-0.18200799822799998,-0.135917693377
455,3.8800000000000017,-0.9571287631990001,1.74467945099,2.5205359458900003,0.453560650349,-0.220336824656,-0.284822195768
456,3.8880000000000017,-1.15471625328,1.6143635511399999,2.52609944344,0.462630569935,-0.26080262661,-0.238281726837
457,3.895000000000002,-1.0251687765100002,1.56715631485,2.5069427490200002,0.46201670169799997,-0.252813994884,-0.354037046432
458,3.903000000000002,-0.73881649971,1.59914839268,2.5412340164200002,0.459840595722,-0.303365558386,-0.23187845945399999
459,3.911000000000002,-0.977715849876,1.5210137367200003,2.63661909103,0.454650342464,-0.291966915131,-0.13111908733799998
460,3.9200000000000017,-1.05061244965,1.46114039421,2.63672971725,0.457066357136,-0.26925542950599995,-0.304649233818
461,3.927000000000002,-0.717260122299,1.4354954958000001,2.77234745026,0.481164157391,-0.256874293089,-0.24863421917
462,3.935000000000002,-1.04947698116,1.4771554470100001,2.73205900192,0.474292784929,-0.255267739296,-0.351058959961
463,3.943000000000002,-0.993481576443,1.45157802105,2.79018878937,0.474423676729,-0.22758418321600002,-0.233283936977
464,3.951000000000002,-0.8769685029979999,1.42809379101,2.86871337891,0.45352435111999995,-0.19106689095499998,-0.10375608503799999
465,3.959000000000002,-1.00925445557,1.39757502079,2.98011779785,0.468292653561,-0.15064977109400002,-0.290443986654
466,3.9680000000000017,-1.14466965199,1.38647341728,2.96995830536,0.465807855129,-0.112728767097,-0.270085841417
467,3.975000000000002,-0.793266296387,1.42413449287,2.99683380127,0.465553730726,-0.0833573937416,-0.383189022541
468,3.9840000000000018,-0.919542074203,1.40725660324,3.0446562767,0.476510107517,-0.0126302875578,-0.25850379466999995
469,3.9920000000000018,-0.944402635098,1.42397618294,2.99374604225,0.473472863436,-0.019425632432099996,-0.0891062021255
470,4.000000000000002,-0.901178777218,1.4581947326700002,3.09840583801,0.4970618486399999,-0.0139672858641,-0.31378158927
471,4.008000000000002,-1.07391393185,1.49747383595,3.1170408725700005,0.48652815818800005,-0.029277248308099996,-0.268290907145
472,4.016000000000002,-1.061881423,1.53532075882,3.0232024192799996,0.488196492195,-0.027408571913799997,-0.33860760927199995
473,4.024000000000002,-0.7090321779250001,1.5151617527,2.9843122959099997,0.478721916676,-0.0635347440839,-0.225296407938
474,4.032000000000002,-0.891515016556,1.54075098038,2.97120952606,0.48363697528800004,-0.06487971544269999,-0.109163701534
475,4.0390000000000015,-1.1122739315,1.5683012008700001,3.00288915634,0.47954618930799997,-0.0796710699797,-0.36368966102600003
476,4.048000000000002,-0.79176568985,1.51469492912,2.9291207790400002,0.49071910977399996,-0.094351939857,-0.279495805502
477,4.056000000000002,-1.0327354669600002,1.52996361256,2.92441296577,0.48389402031900003,-0.142627179623,-0.257851451635
478,4.064000000000002,-1.10362374783,1.53716397285,2.98636245728,0.460026025772,-0.14576572179800001,-0.208387076855
479,4.072000000000002,-0.8703350424770001,1.3914630413100002,3.02438688278,0.47379040718099996,-0.188134238124,-0.10445256531199999
480,4.080000000000002,-1.0123422145799998,1.37570142746,3.11678409576,0.463171720505,-0.183680996299,-0.374476760626
481,4.088000000000002,-1.21009230614,1.36592626572,3.18950510025,0.45894551277199996,-0.230816245079,-0.29565012455
482,4.096000000000002,-0.857821702957,1.4680018425,3.08662843704,0.452718675137,-0.23829209804499998,-0.272816479206
483,4.104000000000002,-0.8220933675769999,1.53743565083,3.1042182445499997,0.42894846200900005,-0.25936087966,-0.209086120129
484,4.112000000000002,-1.0177549123799998,1.50335681438,3.07919168472,0.440267592669,-0.261752724648,-0.141902714968
485,4.120000000000002,-0.960630834103,1.4456697702399999,2.70446443558,0.437262058258,-0.286831974983,-0.395680725574
486,4.128000000000002,-0.226764902472,1.53316235542,2.83740329742,0.40190047025700004,-0.266224205494,-0.15010440349600002
487,4.136000000000002,-0.477034926414,1.4031019210799998,2.92081832886,0.396873891354,-0.270349383354,-0.165360152721
488,4.144000000000002,0.0687616169453,1.40988731384,3.0386710166900004,0.381910979748,-0.182807683945,-0.123833142221
489,4.151000000000002,-0.200124874711,1.5057390928299998,3.04367494583,0.375231295824,-0.155446007848,-0.0333912149072
490,4.160000000000002,-0.146289899945,1.49660468102,2.9035563468900003,0.367896556854,-0.09613414853810001,-0.171589523554
491,4.167000000000002,-0.0649771764874,1.6139347553299999,3.06585693359,0.360491663218,-0.0660261958838,-0.0278243999928
492,4.176000000000002,-0.08110298216339999,1.69766592979,2.67690515518,0.344960153103,-0.053034290671300006,-0.08130042254919999
493,4.184000000000002,-0.228525266051,1.7202684879299999,2.6779623031599997,0.324232876301,-0.0134082976729,-0.041187565773699995
494,4.191000000000002,-0.09445606172080001,1.5736496448500001,2.59991502762,0.32687780261,-0.00912738218904,-0.137183398008
495,4.200000000000002,-0.13907091319599998,1.50398504734,2.7462875843,0.319097757339,0.019191725179599998,-0.268503069878
496,4.208000000000002,0.125862687826,1.3977329731,2.86069297791,0.297084450722,0.0161073114723,-0.12704795599000002
497,4.215000000000002,-0.0339135527611,1.36650192738,3.0003459453600003,0.278643786907,0.0200375169516,-0.09981891512869999
498,4.223000000000002,0.277671605349,1.41088056564,3.00308966637,0.295093953609,0.0393238663673,-0.235888689756
499,4.231000000000002,0.0268235504627,1.3990366458899999,2.92481374741,0.285372465849,0.0482472255826,-0.131143704057
500,4.247000000000002,0.34367263317100005,1.56531345844,2.7919325828600003,0.288279443979,0.029318744316699997,-0.33369150757800004
501,4.256000000000002,0.24612480401999998,1.64295458794,2.7286803722400004,0.279823243618,0.0231022946537,-0.021112484857400002
502,4.263000000000002,-0.021572992205599998,1.75841784477,2.66598343849,0.270783215761,0.019935080781599997,-0.17549726367
503,4.271000000000002,0.259853243828,1.77630519867,2.62193393707,0.28647476434700003,0.0291093662381,-0.147364705801
504,4.279000000000002,0.23171776533100003,1.8515799045599997,2.51158428192,0.28332400321999995,0.018733933568,-0.0834473147988
505,4.287000000000002,0.21194435656100002,1.7746250629400002,2.3628618717200003,0.269154757261,0.0400141626596,-0.278155267239
506,4.295000000000002,0.263587772846,1.80120682716,2.4391124248500002,0.279276132584,0.029352974146599996,-0.211416751146
507,4.303000000000002,0.26045486331,1.6756469011300001,2.3998146057099996,0.2671661973,0.052129857242099994,-0.0177353862673
508,4.311000000000002,0.30328500270799996,1.6837277412399998,2.5449810028099997,0.266595631838,0.0379384234548,0.057497955858699996
509,4.319000000000002,0.357131808996,1.7885050773599998,2.3070170879400003,0.261102795601,0.04059104621409999,-0.0211955942214
510,4.328000000000002,0.38144248724,1.98284041882,2.24864912033,0.272477179766,0.0551424957812,-0.021581515669800003
511,4.336000000000002,0.8607178926469999,2.28416490555,2.1397607326499997,0.267698645592,0.0595333687961,0.108105763793
512,4.344000000000002,1.19401526451,2.41723680496,1.8200600147200001,0.280189365149,0.0954767391086,0.13885721564300002
513,4.351000000000002,1.3214702606200002,2.52586603165,1.66735124588,0.291127800941,0.10878787934800001,0.232796192169
514,4.359000000000002,1.29349040985,2.61715579033,1.54083001614,0.29085469245900003,0.144907414913,0.304275751114
515,4.368000000000002,1.70202922821,2.6853237152099996,1.5250663757299998,0.296675264835,0.156089752913,0.23269933462099998
516,4.376000000000002,1.85107779503,2.7210102081299996,1.47779321671,0.309643089771,0.20816618204100001,0.079338118434
517,4.384000000000002,1.8949537277200001,2.7752499580400003,1.3502202034,0.302372992039,0.19239288568500001,0.20172040164500002
518,4.392000000000002,1.9324697256099999,2.76023936272,1.3354190588,0.31602239608800003,0.202997297049,0.37871220707900005
519,4.400000000000002,1.73391032219,2.82159543037,1.38007450104,0.326002001762,0.19865298271200002,0.155785441399
520,4.408000000000002,1.9047728776900001,2.81114983559,1.51368403435,0.341522574425,0.24915912747400001,0.38036796450599997
521,4.416000000000002,2.05135440826,2.8446450233499996,1.44147992134,0.345191389322,0.235676467419,0.24224780499899998
522,4.424000000000002,1.9895894527400002,2.8425731658899998,1.54183042049,0.35830885171899995,0.266692698002,0.273428022861
523,4.432000000000002,1.89360117912,2.7495405674,1.66110110283,0.35786366462700003,0.25765603780699997,0.282444864511
524,4.440000000000002,2.21562480927,2.7079920768700005,1.7262825965900002,0.387843638659,0.266209095716,0.422863900661
525,4.447000000000002,1.9446008205400003,2.6492800712599998,1.6839165687600002,0.394685268402,0.249172136188,0.10190765559699999
526,4.455000000000002,1.9942213296900002,2.6898460388200003,1.6675821542700002,0.40627938509000006,0.244430884719,0.36416387557999996
527,4.463000000000002,2.20008230209,2.75461268425,1.54670572281,0.41852414608000005,0.214985221624,0.473576307297
528,4.472000000000002,2.09002923965,2.76772260666,1.5758188962900002,0.425786912441,0.236901894212,0.184522986412
529,4.480000000000002,2.21524238586,2.74229240417,1.3203701973,0.432987809181,0.186349570751,0.221221983433
530,4.488000000000002,1.9833331108099996,2.81168270111,1.20532202721,0.44697916507700003,0.17285631596999998,0.160188525915
531,4.496000000000002,2.2118847370099997,3.05896568298,1.29084968567,0.45575851202,0.15369194746,0.33355730772
532,4.504000000000002,2.2311630249000003,2.92737054825,1.43074536324,0.451930761337,0.10201384127100001,0.275005817413
533,4.512000000000002,2.28733325005,2.77635836601,1.5681334734,0.462923049927,0.09900434315199999,0.358140587807
534,4.520000000000002,2.1299946308099997,2.69021654129,1.74429237843,0.460367441177,0.0988083779812,0.28431957960099996
535,4.528000000000002,2.25037765503,2.66829538345,1.52726495266,0.47446560859700004,0.112590104342,0.269295036793
536,4.535000000000002,2.30735087395,2.70291566849,1.76313781738,0.47389674186700004,0.0620188266039,0.18154513835900002
537,4.544000000000002,1.13006973267,2.54590272903,1.74986851215,0.46521255374,0.0789978653193,0.21934071183200002
538,4.552000000000002,1.6253952980000002,2.56646060944,1.38189136982,0.4728910923,0.0956553071737,0.282211124897
539,4.560000000000002,1.4292072057700003,2.5767681598700003,1.52163910866,0.470238208771,0.04480837285519999,0.316052675247
540,4.568000000000002,1.53996670246,2.6915764808700002,1.44289946556,0.47317111492200004,0.12645816802999998,0.190597966313
541,4.576000000000002,1.6742575168599998,2.69792222977,1.45596814156,0.44297158718099994,0.159493088722,0.08599731326099999
542,4.584000000000002,1.7296533584599998,2.7271168232,1.48717308044,0.43626561760899996,0.17880249023400002,0.280951023102
543,4.592000000000002,1.45177054405,2.64200234413,1.58407449722,0.422394812107,0.212669730186,0.278411716223
544,4.600000000000002,1.25442349911,2.59541511536,1.72476172447,0.40107500553099995,0.192202523351,0.333684921265
545,4.608000000000002,1.49838030338,2.66632938385,1.9953092336700002,0.39205411076499996,0.22787541151000001,0.215547174215
546,4.615000000000002,1.4659024477,2.6350800991099996,1.9061489105200002,0.388288736343,0.252727329731,0.10252311080700001
547,4.624000000000002,1.6355423927300001,2.73109531403,1.8358768224700002,0.375753939152,0.31106093525899997,0.263724029064
548,4.632000000000002,1.5890494585,2.70979642868,1.78168416023,0.361658006907,0.335873603821,0.267277985811
549,4.639000000000002,1.46266138554,2.73789191246,1.7199722528499999,0.354787409306,0.35659748315800005,0.326540887356
550,4.648000000000002,1.59907913208,2.6944570541400004,1.5857112407700003,0.32016658783,0.34198707342100004,0.19426184892700002
551,4.656000000000002,1.6917493343399999,2.63868927956,1.6337857246399998,0.31295540928800003,0.32352367043499997,0.11153408885
552,4.664000000000002,1.43683218956,2.63059139252,1.64689540863,0.27719643711999997,0.299847662449,0.298354029655
553,4.672000000000002,1.60010170937,2.60831570625,1.6258820295299998,0.269031405449,0.312660366297,0.279382884502
554,4.680000000000002,1.58168530464,2.61184692383,1.6021099090600002,0.24069178104400002,0.236441016197,0.295819222927
555,4.688000000000002,1.4935092926,2.5364851951599996,1.5368854999500001,0.26282957196199996,0.247293457389,0.18845385313000002
556,4.696000000000002,1.7409402132,2.5747408866900003,1.53120779991,0.272380530834,0.17681324482000002,0.0896826535463
557,4.704000000000002,1.65583086014,2.6321058273299998,1.60411047935,0.250721514225,0.13227891922,0.300459682941
558,4.712000000000002,1.3482892513299998,2.61493825912,1.6066092252700002,0.23163998126999996,0.113846644759,0.28551441430999996
559,4.720000000000002,1.32178068161,2.61169457436,1.59607577324,0.236393451691,0.0741313025355,0.333875417709
560,4.728000000000002,1.49258875847,2.65125870705,1.58826613426,0.19854676723499998,0.0588699541986,0.21167120337499998
561,4.736000000000002,1.4288848638499998,2.61688327789,1.6526498794600002,0.19064381718600001,0.07054657489060001,0.09852980077269999
562,4.744000000000002,1.57343780994,2.65577864647,1.77044320107,0.21074193715999998,0.0746273472905,0.271505445242
563,4.7520000000000024,1.5714625120200003,2.71434354782,1.7293771505400002,0.20187279582000003,0.0806201547384,0.24504262208900002
564,4.7600000000000025,1.42644131184,2.67838001251,1.7822525501299997,0.20002217590799998,0.132356882095,0.351742088795
565,4.7680000000000025,1.6885045766799998,2.63002705574,1.8766465187099999,0.20572119951200002,0.13867431879,0.24067431688299998
566,4.7760000000000025,1.6172516346,2.60886621475,1.90184044838,0.20943516492800002,0.135138124228,0.116385422647
567,4.7840000000000025,1.3103766441299998,2.38505649567,2.0196163654299997,0.20245185494399998,0.154558375478,0.24888187646899998
568,4.7920000000000025,1.4081342220299997,2.27372360229,2.3141541481,0.19279237091499998,0.21666687726999997,0.211394876242
569,4.8000000000000025,1.43724131584,2.16913127899,2.39093184471,0.154258340597,0.17713445425000002,0.348262548447
570,4.8080000000000025,1.5141068697,1.95414066315,2.51350045204,0.196310639381,0.228120312095,0.237777546048
571,4.8160000000000025,1.6719233989700002,1.86547219753,2.6491637229900005,0.195651888847,0.25674110651,0.135097697377
572,4.8240000000000025,1.46545624733,1.76514351368,2.67467164993,0.190960288048,0.282074987888,0.23385889828200002
573,4.831000000000002,1.3917447328600001,1.7206737995099997,2.68204545975,0.197749853134,0.312609761953,0.15929050743599998
574,4.8400000000000025,1.47947573662,1.60325884819,2.7242159843400002,0.179637238383,0.283519864082,0.356297045946
575,4.847000000000002,1.4599862098700003,1.5909388065299999,2.72748804092,0.17608302831599998,0.303222179413,0.274452596903
576,4.855000000000002,1.3722143173199999,1.60033941269,2.79630732536,0.199006408453,0.320064485073,0.19478097558
577,4.863000000000002,1.5922967195500002,1.54624891281,2.74224162102,0.19167187809900002,0.31620097160300004,0.199501305819
578,4.8720000000000026,1.3446867465999999,1.4958860874200002,2.75270318985,0.20565482974100002,0.29835963249200004,0.0848052129149
579,4.879000000000002,1.5225455761000002,1.52398848534,2.8424453735400004,0.21511894464499998,0.274230182171,0.311961978674
580,4.888000000000003,1.67101287842,1.4759169817,2.8459291458099996,0.19941131770599999,0.214026927948,0.27316647768
581,4.896000000000003,1.29140305519,1.3899266719799999,2.86060833931,0.206793367863,0.14931429922599998,0.323603630066
582,4.904000000000003,1.27892112732,1.3845736980399999,2.8594644069700004,0.227483958006,0.137769863009,0.26520889997499997
583,4.912000000000003,1.4629569053600002,1.3555643558500001,2.93073749542,0.219712093472,0.0738391950727,0.10165381431600001
584,4.920000000000003,1.38516771793,1.3225994110100001,3.0511908531200005,0.22638987004799999,0.11524939537000001,0.268071055412
585,4.928000000000003,1.47557878494,1.26689231396,3.0945415496799997,0.252615988255,0.0836342424154,0.15466617047800002
586,4.936000000000003,1.44371533394,1.31325531006,3.0428919792199998,0.263586729765,0.08161868155,0.29976785183000004
587,4.944000000000003,1.4509074687999999,1.29208874702,3.06701135635,0.26494538784000005,0.101873874664,0.339012682438
588,4.952000000000003,1.6255787611,1.26838958263,3.20077252388,0.284903824329,0.11661937087799999,0.247103109956
589,4.960000000000003,1.48273777962,1.27905368805,3.27205944061,0.254903078079,0.11121861636600001,0.24367177486400002
590,4.968000000000003,1.33894956112,1.25400650501,3.2091927528400004,0.290858834982,0.137515872717,0.113640621305
591,4.976000000000003,1.4408634901,1.26549637318,3.3072147369400002,0.310498416424,0.192279651761,0.218892082572
592,4.983000000000002,1.4722640514399998,1.3068194389299999,3.24362945557,0.317200452089,0.194498419762,0.188112974167
593,4.992000000000003,1.5599620342299998,1.30270838737,3.20756268501,0.320309460163,0.24289940297600002,0.311912059784
594,5.000000000000003,1.53110361099,1.4190604686700001,3.16806983948,0.333539754152,0.232143372297,0.314938366413
595,5.008000000000003,1.30775547028,1.4212179184,2.91755962372,0.333119213581,0.26571914553599996,0.312914073467
596,5.016000000000003,1.51622009277,1.42141389847,2.9816789627099998,0.370047688484,0.307591199875,0.226735264063
597,5.024000000000003,1.45992708206,1.26469504833,2.99257087708,0.351106226444,0.293054223061,0.10747590660999999
598,5.031000000000002,1.20289242268,1.1763510704,3.00947904587,0.34130299091300004,0.30308723449700004,0.219964057207
599,5.040000000000003,1.42281460762,1.21876823902,3.15570139885,0.328201174736,0.353234052658,0.117628201842
600,5.0580000000000025,1.45904970169,1.2365219593,3.2088098526,0.330703794956,0.35320469737099996,0.246821790934
601,5.064000000000003,1.46491825581,1.21606993675,3.3623008727999997,0.327634632587,0.300047397614,0.343619704247
602,5.072000000000003,1.2221264839200001,1.32266974449,3.20701503754,0.35619619488700005,0.303440570831,0.307512044907
603,5.080000000000003,1.47425341606,1.37806487083,3.08028554916,0.345950186253,0.28676959872200003,0.167084902525
604,5.088000000000003,1.4814906120299998,1.43937849998,2.8387193679799996,0.35335123539,0.19750967621800003,0.23688356578400002
605,5.096000000000003,1.28673696518,1.40132308006,2.9959969520599996,0.323214530945,0.169759511948,0.10562836378799999
606,5.104000000000003,1.31009697914,1.2874711751899999,3.23675537109,0.304877609015,0.161323606968,0.20932531356800002
607,5.112000000000003,1.2891442775700002,1.17985033989,3.29330635071,0.305213779211,0.097237482667,0.15800300240499998
608,5.119000000000002,1.4249973297100003,1.21950280666,3.4240827560400002,0.318251669407,0.079462505877,0.311321765184
609,5.1270000000000024,1.39985346794,1.2696084976200002,3.20130109787,0.317235350609,0.053532153368,0.24685421586
610,5.136000000000003,1.20453023911,1.3473672866799997,2.9601581096599996,0.292835891247,0.0475260615349,0.38302212953599996
611,5.1430000000000025,1.6015124321,1.38511002064,2.8290076255799996,0.281002342701,0.05264721810819999,0.325101196766
612,5.1510000000000025,1.22086417675,1.27827477455,3.0774743556999997,0.24960820376899998,0.023341987281999998,0.286270827055
613,5.1590000000000025,1.17471957207,1.25288558006,3.11988067627,0.24862575531,0.0580299943686,0.270371824503
614,5.168000000000003,1.3028141260100001,1.27561116219,3.2925877571099997,0.24240912496999997,0.0782336294651,0.127783969045
615,5.1750000000000025,1.1852151155500001,1.2742422819099999,3.03289365768,0.223910450935,0.0994574576616,0.194748237729
616,5.184000000000003,1.3678650856,1.4721146822,3.0479667186699997,0.237941741943,0.136811375618,0.0769459009171
617,5.1910000000000025,1.1764285564399999,1.38903605938,3.05908632278,0.19839927554099998,0.13617825508099998,0.18444779515299997
618,5.200000000000003,1.27324271202,1.4156844615900002,2.97691822052,0.1327778548,0.154931023717,0.127961799502
619,5.208000000000003,1.44006383419,1.47084403038,3.0661385059400006,0.155091404915,0.162312865257,0.27850496769
620,5.2150000000000025,1.1674002409,1.35259616375,3.23959326744,0.124639175832,0.168580830097,0.191492557526
621,5.224000000000003,1.27294588089,1.31008887291,3.2447628974900002,0.12882953882200002,0.206740409136,0.357773840427
622,5.232000000000003,1.099796772,1.44028234482,3.26826763153,0.11553612351399999,0.180718183517,0.282457768917
623,5.240000000000003,1.15269994736,1.4350351095200002,3.14756464958,0.11229231953600001,0.254618942738,0.361560702324
624,5.2470000000000026,1.3453452587099999,1.45773184299,3.28023815155,0.10373859852600001,0.24239742755899998,0.325162410736
625,5.256000000000003,1.30799520016,1.45559179783,3.1950788497900002,0.09432473778719999,0.263787776232,0.300534129143
626,5.264000000000003,1.35737502575,1.3737163543700002,3.36211895943,0.0989563912153,0.27369582653,0.304547399282
627,5.271000000000003,1.09370958805,1.36925721169,3.2923765182499998,0.08109057694670001,0.2718359828,0.276861786842
628,5.280000000000003,1.38596653938,1.30623078346,3.26055049896,0.132625207305,0.265193283558,0.251244395971
629,5.288000000000003,1.1972161531399999,1.32333731651,3.16278791428,0.13775524497000002,0.210087895393,0.231599166989
630,5.295000000000003,1.1968488693200001,1.51455581188,3.1610851287800004,0.16006979346300002,0.179764688015,0.283025413752
631,5.304000000000003,1.2860956192,1.4606090784099999,3.4175298214,0.15314432978599998,0.131639078259,0.143295273185
632,5.312000000000003,1.14881587029,1.26316988468,3.39579153061,0.23050487041499998,0.102217778563,0.21359705925
633,5.320000000000003,1.2920293808,1.25412774086,3.18820738792,0.288560569286,0.0886998176575,0.132527142763
634,5.327000000000003,1.1964493989899998,1.2400982379899999,3.26030302048,0.293303221464,0.040573425591,0.16241548955399998
635,5.335000000000003,1.28292584419,1.4008649587600002,3.35415649414,0.27623939514199997,0.0431099087,0.110797062516
636,5.343000000000003,1.06300580502,1.4079742431600002,3.26262521744,0.27000951767,0.016406336799299998,0.17731076479000002
637,5.351000000000003,1.23701262474,1.12293601036,3.2184410095200002,0.311325013638,0.0492494404316,0.0814905688167
638,5.359000000000003,1.36667609215,1.26101303101,3.19354867935,0.282483011484,0.014516634866599999,0.20590090751600001
639,5.367000000000003,0.975311994553,1.4591343402899999,3.26394748688,0.22405636310600002,0.0134559962898,0.115301936865
640,5.376000000000003,1.23193764687,1.50323760509,3.1660323143,0.200969189405,0.025960996747,0.174996525049
641,5.383000000000003,1.2507004737899998,1.35121977329,3.2180955410000003,0.202630311251,0.0718633383512,0.08556625247000002
642,5.391000000000003,1.34595215321,1.17237114906,3.13486671448,0.22434967756299998,0.106475308537,0.17050358653099998
643,5.399000000000003,0.9912330508230001,1.3641512394,3.29983282089,0.145207986236,0.0886808037758,0.055645596235999996
644,5.407000000000003,1.25994992256,1.4039580822,3.2805340290099996,0.116141140461,0.128574863076,0.18933570385
645,5.416000000000003,1.16959321499,1.42692828178,3.3812189102200003,0.10987529158600001,0.150606185198,0.103509195149
646,5.424000000000003,1.3583946228000001,1.3186237812000001,3.15888309479,0.0701988488436,0.211347177625,0.166723668575
647,5.431000000000003,1.2321821451200001,1.4693109989200002,3.3284668922400003,0.0329404473305,0.17897656559900002,0.110674455762
648,5.440000000000003,1.1443282365799998,1.4511188268700002,3.3728055954,0.010724060237399998,0.17392304539700001,0.224473997951
649,5.447000000000003,1.23229312897,1.59238791466,3.13736009598,-0.00140051729977,0.22348755598099998,0.149855002761
650,5.456000000000003,1.17817592621,1.5599442720399999,3.17095375061,0.056341417133800004,0.238098680973,0.23929360508900002
651,5.463000000000003,1.13421869278,1.43266546726,3.4976162910500004,0.0938621610403,0.267322093248,0.235828757286
652,5.471000000000003,1.13333916664,1.4203386306799999,3.3929886817900003,0.136936053634,0.278719961643,0.279183000326
653,5.480000000000003,1.21906352043,1.51961135864,3.09625339508,0.225055068731,0.289100497961,0.264214634895
654,5.488000000000003,1.00632977486,1.53658175468,3.43898200989,0.320503354073,0.297332704067,0.321786850691
655,5.496000000000003,1.4048871994,1.27415382862,3.48059606552,0.334778904915,0.321224719286,0.33203601837200003
656,5.504000000000003,1.11684906483,1.42268264294,3.1143641471900003,0.324830830097,0.258243888617,0.329424262047
657,5.512000000000003,1.05486559868,1.5387597084,3.32882785797,0.356211453676,0.280639111996,0.377023667097
658,5.520000000000003,1.1198874712,1.4925045967100001,3.39068889618,0.303694576025,0.2266086936,0.260828316212
659,5.528000000000003,1.1335306167599999,1.3033066988,3.18057060242,0.264425158501,0.211371839046,0.322447478771
660,5.536000000000003,1.14409482479,1.44305455685,3.27593946457,0.259048759937,0.17638999223700003,0.173994898796
661,5.543000000000003,1.19143760204,1.49595832825,3.4113166332200002,0.198912233114,0.153057172894,0.237098544836
662,5.552000000000003,1.07556164265,1.3498889207799998,3.34511590004,0.130903571844,0.13485164940400002,0.0530819818377
663,5.560000000000003,1.1974487304700001,1.44825124741,3.25929403305,0.125781700015,0.102915108204,0.189148694277
664,5.567000000000003,1.06441771984,1.4637672901199998,3.3999409675599996,0.11354590952400001,0.06267293542619999,0.0646736323833
665,5.575000000000003,1.12187623978,1.48048210144,3.30255365372,0.107021331787,0.0675274282694,0.142912089825
666,5.583000000000003,1.14688801765,1.4062461853000001,3.1729440689099997,0.12212232500299999,0.0587985813618,0.18824955820999997
667,5.591000000000003,1.0479856729500001,1.54431378841,3.13669061661,0.21563568711300002,0.05535328388209999,0.33098250627500003
668,5.599000000000003,1.15379548073,1.5952706337,3.46852564812,0.298298329115,0.024658555164900002,0.321418136358
669,5.607000000000003,1.07087373734,1.66897749901,3.2637791633599997,0.329245865345,0.021705430001,0.316459357738
670,5.615000000000003,1.11114287376,1.5350914001499998,3.2793440818799997,0.316965639591,0.0560689531267,0.388886332512
671,5.623000000000003,1.13395392895,1.6141123771700001,3.3286848068199997,0.22456967830699998,0.0446642898023,0.20096881687600002
672,5.632000000000003,0.9580170512200001,1.68111908436,2.9793653488200005,0.16885280609099998,0.052848771214500004,0.249061524868
673,5.640000000000003,1.16790914536,1.6366169452700001,3.37103366852,0.133249059319,0.09732282161710001,0.04679184407
674,5.648000000000003,0.885890960693,1.6503908634200002,3.25077724457,0.016275282949200002,0.0958108827472,0.15095534920700002
675,5.655000000000003,1.10183751583,1.7218472957599997,3.01329708099,-0.0299923866987,0.14506675303,0.107862226665
676,5.664000000000003,1.074198246,1.6299486160299999,3.24628925323,-0.032168146222799995,0.145276933908,0.31495207548099996
677,5.672000000000003,0.952040672302,1.62471461296,3.1883516311599998,-0.004713483620430001,0.161484763026,0.351757049561
678,5.680000000000003,1.01667928696,1.87404751778,2.9953327179,0.10945411771500001,0.16589239239700002,0.287888795137
679,5.688000000000003,1.05911135674,1.83506894112,3.11264419556,0.180983036757,0.15428340435000001,0.292743742466
680,5.696000000000003,1.0808352232,1.64744138718,3.15348482132,0.212171196938,0.188079744577,0.130473390222
681,5.704000000000003,1.10922122002,1.8860689401599997,2.9903991222400004,0.176482990384,0.205104798079,0.16311429441
682,5.712000000000003,0.8728275299070001,2.0108101368,3.31255722046,0.11610063910499999,0.22332054376600002,0.0527585707605
683,5.720000000000003,1.0224558115,1.8108603954299998,2.93942928314,-0.0179546438158,0.26560229063,0.24572427570799998
684,5.728000000000003,0.8301973342899999,1.9845247268700001,3.04010105133,-0.051485709846000004,0.246397018433,0.34834730625200006
685,5.736000000000003,1.20077133179,2.08958673477,3.19175028801,-0.0742670223117,0.302522242069,0.281271487474
686,5.744000000000003,0.898202240467,1.99918580055,2.8376586437199998,-0.0114357993007,0.28580880165100003,0.281258106232
687,5.752000000000003,1.18835616112,2.07894802094,3.1606054306,0.115707874298,0.312656342983,0.0812849104404
688,5.760000000000003,0.832659482956,2.0965180397,2.91577386856,0.198028370738,0.268984854221,0.149953171611
689,5.768000000000003,0.966852605343,2.11028623581,3.04986596107,0.179955512285,0.272374004126,0.155817300081
690,5.776000000000003,0.9252002239229999,2.05643105507,3.2344555854799997,0.09166068583730001,0.25805255770700003,0.314267277718
691,5.783000000000003,0.935713291168,2.0984494686099997,3.0089745521499998,0.040956303477300005,0.244237869978,0.386407613754
692,5.792000000000003,1.01241183281,2.0133280754099996,3.10534524918,-0.08708328008649999,0.21980960667100002,0.167875304818
693,5.800000000000003,0.917338311672,1.93099856377,3.24056005478,-0.128485277295,0.181948453188,0.138947069645
694,5.808000000000003,1.11369144917,2.07052087784,2.91403675079,-0.00524407578632,0.181664288044,0.07302580028769999
695,5.816000000000003,0.7764396071430001,1.86426639557,3.20214700699,0.130877479911,0.105145901442,0.296416729689
696,5.824000000000003,1.22712349892,1.8622558116900003,2.7981586456299996,0.211902409792,0.133985221386,0.354207575321
697,5.832000000000003,0.9727206230159999,1.80697417259,3.06008911133,0.145473241806,0.0644132718444,0.188791751862
698,5.840000000000003,1.23917222023,1.94532299042,2.65252685547,0.0733002722263,0.09717860817910001,0.20552965998599998
699,5.848000000000003,0.877103328705,2.10053491592,3.1527049541500003,-0.0240529309958,0.0406512916088,0.104829713702
700,5.8670000000000035,0.7920759916310001,2.14669847488,3.00527906418,0.0148519333452,0.0113575477153,0.36470836401
701,5.872000000000003,0.9587588310240001,2.0630764961200003,3.07474184036,0.164068594575,0.039758808910800005,0.193428233266
702,5.8800000000000034,1.00503695011,2.19664287567,3.0682761669200005,0.198830634356,0.0365671366453,0.16920381784400002
703,5.8880000000000035,0.790639102459,2.28730225563,3.24654722214,0.09452253580089999,0.0609089359641,0.064874984324
704,5.8960000000000035,0.995647072792,2.08620023727,3.1275086402900003,-0.0311815813184,0.057888608425900004,0.29174736142200003
705,5.9040000000000035,0.74750071764,2.29415869713,3.23130989075,-0.131815582514,0.058497533202200004,0.376939117908
706,5.9120000000000035,1.04891610146,1.93432939053,3.1327497959099997,-0.116686761379,0.08244302868839999,0.104519791901
707,5.9200000000000035,0.8990940451620001,2.04410099983,3.08199310303,0.048272177577,0.0968387424946,0.127926170826
708,5.9280000000000035,0.866300582886,2.08207416534,3.1400384903,0.18574541807199998,0.110764808953,0.24052335321899998
709,5.9360000000000035,0.952219963074,1.94018435478,3.02426481247,0.17572680115699998,0.100344389677,0.32771217823000004
710,5.9440000000000035,0.937227845192,2.1172213554400003,3.13235020638,0.0530053712428,0.152299389243,0.26333078742
711,5.9520000000000035,1.01704633236,2.2301919460299997,3.00128149986,-0.0326202996075,0.124598689377,0.0394706875086
712,5.9600000000000035,0.904224157333,2.2545146942099996,3.19622898102,-0.0302122980356,0.169594317675,0.268666148186
713,5.9680000000000035,0.9422254562379999,2.18562674522,3.12010240555,0.172119617462,0.168941468,0.364140510559
714,5.9760000000000035,0.960836350918,2.32407045364,3.2600131034900004,0.185502797365,0.19426068663600002,0.117374703288
715,5.9840000000000035,0.778747558594,2.1891002655,3.12579751015,0.06829884648319999,0.19630169868500003,0.0907139033079
716,5.9920000000000035,1.0665490627299998,2.3015439510299998,3.4567985534699996,-0.0741947740316,0.220682919025,0.227662876248
717,6.0000000000000036,0.61714053154,2.3404879569999997,2.69670629501,-0.15482625365299998,0.21131825447099997,0.289987951517
718,6.008000000000004,0.664246916771,2.5100789070099996,2.80769634247,0.0245359651744,0.260677218437,0.1733263731
719,6.016000000000004,0.287875115871,2.67935967445,2.38541817665,0.119656413794,0.220665335655,0.0627327933908
720,6.024000000000004,0.256608963013,2.4699511528,2.83556604385,0.177498221397,0.23201464116599999,0.28634032607099996
721,6.032000000000004,0.500022530556,2.71250748634,2.7211155891400005,0.0443434566259,0.26914075017,0.16110710799699998
722,6.040000000000004,0.210988968611,2.8427293300599996,2.72099208832,-0.05770543962719999,0.269419640303,0.212403267622
723,6.048000000000004,0.220315426588,2.70457792282,2.56626415253,-0.047127760946800004,0.2645188272,0.13184377551100002
724,6.056000000000004,0.304529547691,2.93112182617,2.65378761292,0.09894743561739999,0.276112049818,0.102669134736
725,6.064000000000004,0.388317942619,2.9131517410299996,2.6840605735799996,0.19849255680999997,0.264241278172,0.265105217695
726,6.072000000000004,0.440602183342,2.94964885712,2.8337252139999998,0.146331354976,0.302255988121,0.0787013098598
727,6.080000000000004,0.333999156952,2.74881458282,2.5860350132,0.061384409666099995,0.288284659386,0.153253510594
728,6.087000000000003,0.321416974068,2.9051432609599996,2.59580850601,-0.029737815260900004,0.26495179534,0.240505263209
729,6.095000000000003,0.185788810253,2.8720293045,2.7900261879,-0.11396343261,0.259901821613,0.105272077024
730,6.104000000000004,0.293588191271,2.89903950691,2.5709600448599996,-0.0743725970387,0.250653982162,0.287348210812
731,6.112000000000004,0.20969328284299998,2.85413765907,2.40443134308,0.0555959306657,0.248042479157,0.0705280527472
732,6.120000000000004,0.25884616375,2.88643503189,2.65771865845,0.157095804811,0.22582876682300002,-0.025366475805599996
733,6.128000000000004,0.220890462399,2.8486514091500004,2.6424510479,0.20888197422000002,0.241394042969,0.210622787476
734,6.136000000000004,0.305708765984,2.8814835548400004,2.43263363838,0.249538868666,0.218665540218,0.244869068265
735,6.144000000000004,0.137944191694,2.97912025452,2.19458508492,0.23860350251200002,0.22828069329300002,0.0785946249962
736,6.152000000000004,0.11477336287499999,3.0764517784099996,2.31987953186,0.196147471666,0.217668697238,0.0983648896217
737,6.160000000000004,0.0804885849357,3.06583881378,2.3871304988900004,0.145343154669,0.195537507534,0.22970664501200003
738,6.167000000000003,-0.0261157602072,3.1039648056,2.40582132339,0.117200106382,0.20104727149,0.27408310771
739,6.176000000000004,-0.07963410764930001,3.0851559638999997,2.49865078926,0.125809758902,0.203850954771,0.290931940079
740,6.183000000000003,-0.00651523005217,3.0295481681800003,2.5525679588299997,0.116247393191,0.21115991473200002,0.26129591465
741,6.191000000000003,-0.0449033789337,3.0592343807200004,2.48659610748,0.146049782634,0.185604482889,0.173390865326
742,6.199000000000003,-0.178280234337,3.10712051392,2.3564586639400003,0.190360471606,0.18694290518800002,0.139697253704
743,6.207000000000003,-0.609164953232,3.26486825943,2.01646780968,0.217471003532,0.182457387447,0.0166028477252
744,6.215000000000003,-0.850769639015,2.42363500595,2.9888453483599995,0.09058804064989999,0.163166105747,0.025572471320599997
745,6.223000000000003,-0.737612366676,2.04716849327,3.43239355087,0.19396382570300003,0.13162535429000002,0.0380540937185
746,6.231000000000003,-0.832461118698,1.8745279312099998,3.1912560463,0.0266001950949,0.134944081306,0.054444264620500005
747,6.240000000000004,-1.02600431442,1.7308431863799998,3.02222204208,-0.029166741296599998,0.10276497155400001,0.0164137873799
748,6.248000000000004,-1.02673482895,1.6491588354100002,3.09905576706,-0.0329795256257,0.0977214872837,-0.0858120322227
749,6.256000000000004,-0.936935126781,1.64394426346,3.2492372989700002,-0.034455925226199995,0.103270098567,-0.187505185604
750,6.264000000000004,-0.9787940382960001,1.7574367523199999,3.67328858376,0.00947439856827,0.0385299138725,-0.296809017658
751,6.272000000000004,-0.973042368889,1.70626401901,3.48707914352,0.0959390997887,0.048882506787800005,-0.26756387949
752,6.280000000000004,-1.1014660596799999,1.58567428589,3.46913790703,0.204217582941,0.0140586812049,-0.13233433663799998
753,6.288000000000004,-1.19601345062,1.6322089433700002,3.41161680222,0.168852031231,0.00522818276659,-0.312271475792
754,6.296000000000004,-1.25283527374,1.7448966503099999,3.5654978752099997,0.0522140190005,0.037306495010900005,-0.47577756643299995
755,6.304000000000004,-1.06945204735,1.90169227123,3.6064639091500004,-0.07353434711689999,0.043384812772300003,-0.189048364758
756,6.312000000000004,-1.1049580574,1.79828047752,3.5458447933199997,-0.136776611209,0.0328667461872,-0.146283015609
757,6.320000000000004,-1.23618412018,1.91285336018,3.87573742867,-0.0471560135484,0.031412884593000005,-0.34360960125900003
758,6.328000000000004,-1.32006144524,2.06261920929,3.31634187698,0.154041066766,0.0204054024071,-0.0997322797775
759,6.336000000000004,-1.27514028549,1.8652882575999998,3.7893974781,0.171703219414,0.0200346186757,-0.420883953571
760,6.344000000000004,-1.24630570412,2.0639398098,3.49902105331,-0.034555349499,0.0397126600146,-0.18796128034600001
761,6.352000000000004,-1.21030426025,2.0021033287,3.79246973991,-0.012670475989600001,0.038468189537499996,-0.23695380985700001
762,6.3590000000000035,-1.15040373802,2.05055952072,3.6481962204,0.167858242989,0.021036081016099998,-0.200785517693
763,6.368000000000004,-1.27422428131,2.0919752121,3.98159456253,0.0429909192026,0.042351517826300006,-0.38718098401999995
764,6.376000000000004,-1.07919239998,1.9945508241699998,4.18331813812,-0.0814791619778,-0.00742289982736,-0.132608905435
765,6.384000000000004,-0.978278815746,2.09273004532,3.91806221008,0.137940913439,0.018406786024599997,-0.315152615309
766,6.392000000000004,-1.32542610168,1.8548977375,4.03490400314,0.04133600741619999,-0.039030149579,-0.17747375369100002
767,6.400000000000004,-1.26496195793,1.9577397108099996,4.06095409393,-0.107816189528,0.00043702824041199994,-0.372426271439
768,6.407000000000004,-1.08379209042,1.5457623004899999,3.77192640305,0.121869429946,-0.0295559614897,-0.227724894881
769,6.416000000000004,-1.37336134911,1.64939689636,3.7182960510300003,-0.126513272524,-0.0510604903102,-0.13842053711400001
770,6.424000000000004,-0.8096932172779999,1.9982542991599999,3.2750122547099996,0.0844078511,-0.0639851391315,-0.33406367898
771,6.431000000000004,-0.92045712471,2.2541790008500002,3.4206223487900003,-0.00470447167754,-0.026342082768700002,-0.258842110634
772,6.440000000000004,-0.797384023666,2.38867950439,3.56469964981,-0.0215887278318,-0.0932840257883,-0.13527944684
773,6.448000000000004,-0.8327252268790001,2.4537212848700003,3.5550546646099996,0.04005263000730001,-0.09428383409980001,-0.25495785474800003
774,6.456000000000004,-0.789546012878,2.77049255371,3.4295439720200003,-0.104652635753,-0.122740492225,-0.252570599318
775,6.464000000000004,-0.667245745659,2.6820192337,3.4951286315900005,0.194185122848,-0.14365369081499998,-0.17550626397100003
776,6.472000000000004,-0.776641011238,2.8438243866,3.5592184066800003,-0.015542568638899999,-0.11416563391699999,-0.31297153234499997
777,6.480000000000004,-0.816456258297,2.8525633812,3.7339451313,0.196662724018,-0.166056886315,-0.2561404109
778,6.488000000000004,-0.7740330696109999,2.78221201897,3.6620850563,-0.172718122602,-0.156103685498,-0.138328373432
779,6.496000000000004,-0.768805623055,2.7551550865200003,3.42165756226,0.0811060294509,-0.17654883861499998,-0.300341457129
780,6.504000000000004,-0.8536620736120001,2.46121644974,3.3768141269700003,-0.07222138345239999,-0.181673109531,-0.240762367845
781,6.512000000000004,-0.603414475918,2.5847351551099997,3.59601044655,0.156512469053,-0.198085874319,-0.102691359818
782,6.520000000000004,-0.952717065811,2.65322446823,3.54778242111,-0.058304756879799996,-0.19935981929299998,-0.298533797264
783,6.528000000000004,-0.8734709620479999,2.67672729492,3.71883416176,0.168842121959,-0.22763149440299998,-0.171773314476
784,6.536000000000004,-0.693588376045,2.7931513786299997,3.5050950050400003,-0.0343663394451,-0.230593979359,-0.105459362268
785,6.543000000000004,-0.9321558475489999,2.75880432129,3.75790643692,0.07820956408980001,-0.25880610942800003,-0.382861495018
786,6.551000000000004,-0.7274246215819999,2.62215733528,3.5080223083499997,-0.105770900846,-0.228901058435,-0.113104127347
787,6.560000000000004,-0.646852016449,2.53865671158,3.71611166,0.105872809887,-0.255557358265,-0.114232748747
788,6.567000000000004,-0.873900413513,2.36528277397,3.5479636192300004,-0.051457587629599996,-0.272955477238,-0.41759741306299997
789,6.575000000000004,-0.962838113308,2.63395023346,3.3162317276,0.0907597690821,-0.272549033165,-0.0845893025398
790,6.583000000000004,-0.864041626453,2.53827166557,3.1641297340400003,-0.17826712131499997,-0.276172667742,-0.258359760046
791,6.591000000000004,-0.821161210537,2.64895939827,3.3639912605299997,0.12299425900000001,-0.24494017660599998,-0.325904518366
792,6.599000000000004,-0.78024160862,2.9656867981,3.5095613002800006,-0.0110192783177,-0.19895309209800002,-0.0521936304867
793,6.608000000000004,-0.5532625913620001,2.90769815445,3.76596593857,0.147895470262,-0.24819371104200003,-0.301243335009
794,6.615000000000004,-0.938932180405,3.0931229591400005,3.9446160793300002,-0.0189348291606,-0.22155869007100001,-0.221952050924
795,6.624000000000004,-0.8442502021789999,3.17787075043,3.7798686027499997,0.08894717693330001,-0.21201887726799998,-0.26004165410999996
796,6.631000000000004,-0.703953146935,3.00152635574,3.4891457557699996,-0.0752461403608,-0.212619096041,-0.219119623303
797,6.639000000000004,-0.903352975845,3.00404191017,3.5650331974,-0.0533578172326,-0.189174175262,-0.0942187011242
798,6.648000000000004,-0.6252394914630001,2.7732436657,3.6848812103300004,0.09710533916950001,-0.140933334827,-0.399957478046
799,6.656000000000004,-0.666757643223,2.85341596603,3.86131191254,-0.0046970453113299995,-0.161551445723,-0.128850370646
800,6.666000000000004,-1.02455377579,3.0847811698900003,3.8424382209800005,0.140762060881,-0.155310511589,-0.218972682953
801,6.672000000000004,-0.877073526382,2.88915300369,3.6016061306,-0.184835851192,-0.136647596955,-0.336377501488
802,6.680000000000004,-0.558339118958,3.34398436546,2.85422468185,0.105131864548,-0.10697744786699999,-0.0255429726094
803,6.688000000000004,-0.518984556198,3.2725131511699996,2.7912144660900005,-0.0016404887428499999,-0.0440862476826,-0.262694120407
804,6.696000000000004,-0.422164052725,3.2368350029000004,2.80549430847,-0.00863613467664,-0.0679126679897,-0.0606450513005
805,6.704000000000004,-0.329950988293,3.4467570781699997,3.0178425312,0.113662160933,-0.0012972507393,-0.363432586193
806,6.712000000000004,-0.200426548719,3.55378437042,2.9021549224900003,0.0214219968766,-0.0363223701715,-0.027820892632
807,6.720000000000004,-0.335705578327,3.7691068649300004,2.73576259613,0.000351429451257,-0.007204509340229999,-0.25726941227899996
808,6.728000000000004,-0.32940256595600004,3.69410610199,2.72962474823,0.055922836065300005,-0.0617999508977,-0.0520004704595
809,6.736000000000004,-0.114567376673,4.1301574706999995,2.9064941406200004,-0.027197292074599998,0.010192704387,-0.28523612022399997
810,6.744000000000004,-0.15042206645,3.92855262756,2.83271765709,0.24494099616999998,-0.037681914866,-0.25500679016100003
811,6.752000000000004,-0.412830561399,4.07162857056,2.93134903908,-0.042906139046,-0.019569303840400003,-0.021346049383299998
812,6.760000000000004,-0.324110925198,4.01053237915,2.7585136890400004,0.222301751375,-0.028438078239599998,-0.24494817853
813,6.768000000000004,-0.364096879959,3.99184608459,2.8036031723000003,0.034632220864300005,-0.00608485424891,-0.19847011566199999
814,6.776000000000004,-0.146077275276,3.9519615173300005,2.4320566654199998,-0.12350033968699999,0.00333845848218,-0.068711809814
815,6.784000000000004,-0.014813610352600001,3.93525695801,2.57618498802,0.173649638891,-0.007336531765760001,-0.25601786375
816,6.792000000000004,-0.251549959183,3.7523922920199997,2.21052360535,0.121560722589,0.000546410330571,-0.324796497822
817,6.800000000000004,-0.36153811216399995,3.7155823707599995,2.54703617096,0.006836517713960001,-0.00934886094183,-0.130190417171
818,6.808000000000004,-0.36397707462300005,3.76303625107,2.49073839188,-0.0017105091828900003,0.00756847672164,0.0222465768456
819,6.816000000000004,-0.277365475893,3.93272185326,2.24989700317,0.234036386013,-0.0013768352800999997,-0.037234857678400006
820,6.824000000000004,-0.39374452829400003,3.89161491394,2.43087768555,0.15259411931,-0.011916832067100001,-0.16411605477299998
821,6.832000000000004,-0.20810899138500003,3.79763793945,2.46758317947,0.0677796676755,0.0116480141878,-0.22194343805300001
822,6.840000000000004,-0.202389881015,3.98013734818,2.50194120407,-0.024249808862799996,0.0210489146411,-0.206415086985
823,6.848000000000004,-0.174791753292,4.14189863205,2.2716360092200003,-0.0589771568775,0.00991810299456,-0.16292694211
824,6.856000000000004,-0.164399653673,4.13218688965,2.13811802864,-0.00324021978304,0.0122197559103,-0.07644973695280001
825,6.864000000000004,-0.0559132434428,4.26687288284,2.27995324135,0.08013930916789999,-0.00915099307895,-0.0459419339895
826,6.872000000000004,0.00802304316312,4.30169343948,2.18256425858,0.167792886496,-0.00027608452364799997,-0.0159744080156
827,6.880000000000004,0.481602668762,4.79759550095,1.7204172611200002,0.32230025529899997,0.0388021059334,0.06106156855819999
828,6.888000000000004,-0.164522945881,5.2743768692,1.73278355598,0.30566924810400004,-0.00359932193533,-0.10746565461200001
829,6.896000000000004,-0.91061091423,5.39757537842,1.5450761318200001,0.311991065741,0.005327377002689999,-0.13242386281500002
830,6.904000000000004,-1.27098715305,5.54817485809,1.45925855637,0.310929864645,-0.0414264388382,-0.159913152456
831,6.912000000000004,-1.2904179096200001,5.58678340912,1.24607646465,0.30080810189199997,-0.014443919062600001,-0.208189442754
832,6.920000000000004,-1.34493088722,5.374553680419999,1.06255173683,0.271369159222,-0.019440241158,-0.300424337387
833,6.928000000000004,-1.37768256664,5.23271942139,0.715306401253,0.268107444048,-0.04910531267519999,-0.383104652166
